!!!!SEGMENT: pl-stab--77a--005_wygrzywalski-jozef--msza-benedictus.krn
!!!cenid: 18xx:3415
!!!COM: Wygrzywalski, Józef
!!!COM-rismID: pe30109448
!!!CDT:
!!!CNT:
!!!OPR: Msza
!!!OTL: Benedictus
!!!OMV: 005
!!!PDT:
!!!AGN:
!!!SMS-siglum: PL-STAb
!!!SMS-shelfmark: 77a
!!!SMS-shelfwork: M
!!!SMS-variant:
!!!SMS-altvar:
!!!NIFC-rismSourceID: 1001167521
!!!NIFC-islandoraID: pl-stab:4717
!!!URL-pdf-islandora: https://repozytorium.nifc.pl/islandora/object/pl-stab%3A4717/datastream/PDF/view
!!!URL-scan: https://polish.musicsources.pl/pl/lokalizacje/galeria/rekopisy/4558 @EN{Scan on Polish Music Herritage in Open Access Website} @PL{Skany w portalu Dziedzictwo Muzyki Polskiej w otwartym dostępie}
!!!ONB-nifc: UWAGA: części Mszy: 1. Kyrie, 2. Gloria, 3. Credo, 4. Sanctus, 5. Benedictus, 6. Agnus Dei. Na f. 1r głosu cl 2 zapisana partytura org dla części Gloria, pochodzącej z innej mszy.
!!!AIN: 1 alto 1 bass 2 clars 2 cor 1 organ 1 soprn 1 tenor 2 violn
!!!key: C
**kern	**fba	**dynam	**kern	**dynam	**kern	**dynam	**kern	**text	**kern	**kern	**text	**text	**dynam	**kern	**text	**kern	**dynam	**kern	**dynam	**kern	**dynam	**kern	**dynam
*part11	*	*part11	*part10	*part10	*part9	*part9	*part8	*part8	*part7	*part6	*part6	*part6	*part6	*part5	*part5	*part4	*part4	*part3	*part3	*part2	*part2	*part1	*part1
*group5	*	*	*group4	*	*group4	*	*group3	*group3	*group3	*group3	*group3	*group3	*	*group3	*group3	*group2	*	*group2	*	*group1	*	*group1	*
*staff11	*	*	*staff10	*	*staff9	*	*staff8	*staff8	*staff7	*staff6	*staff6	*staff6	*	*staff5	*staff5	*staff4	*	*staff3	*	*staff2	*	*staff1	*
*I"Organo	*	*	*I"Violino II	*	*I"Violino primo	*	*I"Baſso	*	*I"[Tenore]	*I"Alto	*	*	*	*I"Canto	*	*I"Corno 2do in F	*	*I"Corno 1mo in F	*	*I"Clarineto 2do	*	*I"Clarinetto 1mo in C	*
*I'org	*	*	*I'vl 2	*	*I'vl 1	*	*I'B	*	*I'[T]	*I'A	*	*	*	*I'S	*	*I'cor 2 in C	*	*I'cor 1 in C	*	*I'cl 2 in C	*	*I'cl 1 in C	*
*Iorgan	*	*	*Ivioln	*	*Ivioln	*	*Ibass	*	*Itenor	*Ialto	*	*	*	*Isoprn	*	*Icor	*	*Icor	*	*Iclars	*	*Iclars	*
*ICklav	*	*	*ICstr	*	*ICstr	*	*ICvox	*	*ICvox	*ICvox	*	*	*	*ICvox	*	*ICbras	*	*ICbras	*	*ICww	*	*ICww	*
*clefF3	*	*	*clefG2	*	*clefG2	*	*clefF3	*	*clefC4	*clefC3	*	*	*	*clefC1	*	*clefG2	*	*clefG2	*	*clefG2	*	*clefG2	*
*	*	*	*	*	*	*	*	*	*	*	*	*	*	*	*	*Trd0c0	*	*Trd0c0	*	*	*	*	*
*k[]	*	*	*k[]	*	*k[]	*	*k[]	*	*k[]	*k[]	*	*	*	*k[]	*	*k[]	*	*k[]	*	*k[]	*	*k[]	*
*C:	*	*	*C:	*	*C:	*	*C:	*	*C:	*C:	*	*	*	*C:	*	*C:	*	*C:	*	*C:	*	*C:	*
*M4/4	*	*	*M4/4	*	*M4/4	*	*M4/4	*	*M4/4	*M4/4	*	*	*	*M4/4	*	*M4/4	*	*M4/4	*	*M4/4	*	*M4/4	*
*met(c)	*	*	*met(c)	*	*met(c|)	*	*met(c)	*	*met(c)	*met(c)	*	*	*	*met(c)	*	*met(c)	*	*met(c)	*	*met(c)	*	*met(c)	*
=1	=1	=1	=1	=1	=1	=1	=1	=1	=1	=1	=1	=1	=1	=1	=1	=1	=1	=1	=1	=1	=1	=1	=1
*2\right	*	*2\right	*2\right	*2\right	*2\right	*2\right	*2\right	*2\right	*2\right	*2\right	*2\right	*2\right	*2\right	*2\right	*2\right	*2\right	*2\right	*2\right	*2\right	*2\right	*2\right	*2\right	*2\right
!LO:CL:ed	!	!	!	!	!	!	!LO:CL:ed	!	!	!	!	!	!	!	!	!	!	!	!	!	!	!	!
*clefF4	*	*	*	*	*	*	*clefF4	*	*	*	*	*	*	*	*	*	*	*	*	*	*	*	*
!!LO:TX:t=P:problem:all\left, middle or right:global
!	!	!	!	!	!	!	!LO:TX:B:t=Andandtio	!	!	!LO:TX:B:t=Andante	!	!	!	!LO:TX:B:t=andante	!	!LO:TX:B:t=andante	!	!LO:TX:B:t=Andante	!	!	!	!	!
!LO:TX:B:t=Andante	!	!	!LO:TX:B:t=Andante	!	!LO:TX:B:t=andte	!	!LO:TX:t=14	!	!LO:TX:a:t=P:problem=brak partii w źródle	!LO:TX:t=15	!	!	!	!LO:TX:t=7	!	!LO:TX:t=in C	!	!LO:TX:t=in C	!	!	!	!	!
4C/	x 3	.	8e/L	.	8g/	.	1r	.	1ryy	1r	.	.	.	00r	.	4e/	.	4cc\	.	4g/	.	4ee\	.
.	.	.	8G/	.	8r	.	.	.	.	.	.	.	.	.	.	.	.	.	.	.	.	.	.
4r	.	.	8g/	.	8.ee\L	.	.	.	.	.	.	.	.	.	.	4r	.	4r	.	4r	.	4r	.
.	.	.	8G/J	.	.	.	.	.	.	.	.	.	.	.	.	.	.	.	.	.	.	.	.
.	.	.	.	.	32dd\LL	.	.	.	.	.	.	.	.	.	.	.	.	.	.	.	.	.	.
.	.	.	.	.	32cc\JJJ	.	.	.	.	.	.	.	.	.	.	.	.	.	.	.	.	.	.
4GG/	7 5	.	8f/L	.	8b\	.	.	.	.	.	.	.	.	.	.	4g/	.	4dd\	.	4b\	.	4ff\	.
.	.	.	8G/	.	8r	.	.	.	.	.	.	.	.	.	.	.	.	.	.	.	.	.	.
!	!	!	!	!	!LO:N:vis=8	!	!	!	!	!	!	!	!	!	!	!	!	!	!	!	!	!	!
4r	.	.	8B/	.	8.ff\L	.	.	.	.	.	.	.	.	.	.	4r	.	4r	.	4r	.	4r	.
.	.	.	8G/J	.	.	.	.	.	.	.	.	.	.	.	.	.	.	.	.	.	.	.	.
.	.	.	.	.	32ee\LL	.	.	.	.	.	.	.	.	.	.	.	.	.	.	.	.	.	.
.	.	.	.	.	32dd\JJJ	.	.	.	.	.	.	.	.	.	.	.	.	.	.	.	.	.	.
=2	=2	=2	=2	=2	=2	=2	=2	=2	=2	=2	=2	=2	=2	=2	=2	=2	=2	=2	=2	=2	=2	=2	=2
4C/	.	.	8e/L	.	8cc\	.	1r	.	1ryy	1r	.	.	.	.	.	4e/	.	4cc\	.	4cc\	.	4ee\	.
.	.	.	8G/	.	8r	.	.	.	.	.	.	.	.	.	.	.	.	.	.	.	.	.	.
4C/	6 4	.	8f/	.	8.ccc\L	.	.	.	.	.	.	.	.	.	.	4r	.	4r	.	4r	.	4r	.
.	.	.	8A/J	.	.	.	.	.	.	.	.	.	.	.	.	.	.	.	.	.	.	.	.
.	.	.	.	.	32bb\LL	.	.	.	.	.	.	.	.	.	.	.	.	.	.	.	.	.	.
.	.	.	.	.	32aa\JJJ	.	.	.	.	.	.	.	.	.	.	.	.	.	.	.	.	.	.
4C/	4| 3-	.	8e-X/L	.	4ff#X\	.	.	.	.	.	.	.	.	.	.	2c/	.	2cc\	.	4dd#X\	.	4ff#X\	.
.	.	.	8A/	.	.	.	.	.	.	.	.	.	.	.	.	.	.	.	.	.	.	.	.
!	!	!	!LO:SIC:v:s=8en/	!	!	!	!	!	!	!	!	!	!	!	!	!	!	!	!	!	!	!	!
4C/	5 3n	.	8e-/	.	8.gg\L	.	.	.	.	.	.	.	.	.	.	.	.	.	.	8ee\	.	8gg\	.
!	!	!	!LO:SIC:v:s=8en/J	!	!	!	!	!	!	!	!	!	!	!	!	!	!	!	!	!	!	!	!
.	.	.	8e-/J	.	.	.	.	.	.	.	.	.	.	.	.	.	.	.	.	8r	.	8r	.
.	.	.	.	.	16gg#X\Jk	.	.	.	.	.	.	.	.	.	.	.	.	.	.	.	.	.	.
=3	=3	=3	=3	=3	=3	=3	=3	=3	=3	=3	=3	=3	=3	=3	=3	=3	=3	=3	=3	=3	=3	=3	=3
*	*	*	*tremolo	*	*	*	*	*	*	*	*	*	*	*	*	*	*	*	*	*	*	*	*
!	!	!	!	!	!	!	!	!	!	!	!	!	!	!	!	!LO:TX:t=1	!	!LO:TX:t=1	!	!	!	!	!
4D\	.	.	8f/L	.	8.aa\L	.	1r	.	1ryy	1r	.	.	.	.	.	1r	.	1r	.	4a/	.	4ff\	.
.	.	.	8A/	.	.	.	.	.	.	.	.	.	.	.	.	.	.	.	.	.	.	.	.
.	.	.	.	.	16dd\Jk	.	.	.	.	.	.	.	.	.	.	.	.	.	.	.	.	.	.
.	.	.	.	.	16qqee/	.	.	.	.	.	.	.	.	.	.	.	.	.	.	.	.	.	.
4F\	6 3	.	8f/	.	16dd\LL	.	.	.	.	.	.	.	.	.	.	.	.	.	.	4r	.	4r	.
.	.	.	.	.	16cc#X\	.	.	.	.	.	.	.	.	.	.	.	.	.	.	.	.	.	.
.	.	.	8A/J	.	16dd\	.	.	.	.	.	.	.	.	.	.	.	.	.	.	.	.	.	.
.	.	.	.	.	16ee\JJ	.	.	.	.	.	.	.	.	.	.	.	.	.	.	.	.	.	.
*	*	*	*Xtremolo	*	*	*	*	*	*	*	*	*	*	*	*	*	*	*	*	*	*	*	*
*	*	*	*tremolo	*	*	*	*	*	*	*	*	*	*	*	*	*	*	*	*	*	*	*	*
!	!	!	!	!	!LO:TX:t=P:problem=mixed beam	!	!	!	!	!	!	!	!	!	!	!	!	!	!	!	!	!	!
4G\	6 4	.	8f/L	.	8gg\L	.	.	.	.	.	.	.	.	.	.	.	.	.	.	2b\	.	2ff\	.
.	.	.	8G/	.	8ff\	.	.	.	.	.	.	.	.	.	.	.	.	.	.	.	.	.	.
4GG/	5 3	.	8f/	.	8a/	.	.	.	.	.	.	.	.	.	.	.	.	.	.	.	.	.	.
.	.	.	8G/J	.	8b/J	.	.	.	.	.	.	.	.	.	.	.	.	.	.	.	.	.	.
*	*	*	*Xtremolo	*	*	*	*	*	*	*	*	*	*	*	*	*	*	*	*	*	*	*	*
=4	=4	=4	=4	=4	=4	=4	=4	=4	=4	=4	=4	=4	=4	=4	=4	=4	=4	=4	=4	=4	=4	=4	=4
!	!	!	!	!	!	!	!	!	!	!	!	!	!	!	!	!	!	!	!	!	!	!LO:TX:a:t=Solo	!
4C/	x 3	.	8enL 8G/	.	8cc\L	.	1r	.	1ryy	1r	.	.	.	.	.	2r	.	4r	.	8cc\L	.	8ee\L	.
.	.	.	8e/	.	8g\	.	.	.	.	.	.	.	.	.	.	.	.	.	.	8ee\	.	8gg\	.
4r	.	.	8f/	.	8a\	.	.	.	.	.	.	.	.	.	.	.	.	4r	.	8ff\	.	8aa\	.
.	.	.	8e/J	.	8g\J	.	.	.	.	.	.	.	.	.	.	.	.	.	.	8ee\J	.	8gg\J	.
!	!	!	!	!	!LO:TX:t=P:problem=mixed beam	!	!	!	!	!	!	!	!	!	!	!	!	!	!	!	!	!	!
8r	.	.	8d/L	.	8f/L	.	.	.	.	.	.	.	.	.	.	8r	.	8r	.	2dd\	.	2ff\	.
8GG/L	7 5	.	8f 8G/	.	8ff\	.	.	.	.	.	.	.	.	.	.	8g/L	.	8dd\L	.	.	.	.	.
8GG/	.	.	8f 8G/	.	8a/	.	.	.	.	.	.	.	.	.	.	8g/	.	8dd\	.	.	.	.	.
8GG/J	.	.	8fJ 8G/	.	8b/J	.	.	.	.	.	.	.	.	.	.	8g/J	.	8dd\J	.	.	.	.	.
=5	=5	=5	=5	=5	=5	=5	=5	=5	=5	=5	=5	=5	=5	=5	=5	=5	=5	=5	=5	=5	=5	=5	=5
*rep	*	*	*rep	*	*rep	*	*	*	*	*	*	*	*	*	*	*	*	*	*	*	*	*	*
4C/	.	.	8eL 8G/	.	8cc\L	.	1r	.	1ryy	1r	.	.	.	0r	.	4e/	.	4cc\	.	8cc\L	.	8ee\L	.
.	.	.	8e/	.	8g\	.	.	.	.	.	.	.	.	.	.	.	.	.	.	8ee\	.	8gg\	.
4r	.	.	8f/	.	8a\	.	.	.	.	.	.	.	.	.	.	4r	.	4r	.	8ff\	.	8aa\	.
.	.	.	8e/J	.	8g\J	.	.	.	.	.	.	.	.	.	.	.	.	.	.	8ee\J	.	8gg\J	.
!	!	!	!	!	!LO:TX:t=P:problem=mixed beam	!	!	!	!	!	!	!	!	!	!	!	!	!	!	!	!	!	!
8r	.	.	8d/L	.	8f/L	.	.	.	.	.	.	.	.	.	.	8r	.	8r	.	4dd\	.	2ff\	.
8GG/L	7 5	.	8f 8G/	.	8ff\	.	.	.	.	.	.	.	.	.	.	8g/L	.	8dd\L	.	.	.	.	.
8GG/	.	.	8f 8G/	.	8a/	.	.	.	.	.	.	.	.	.	.	8g/	.	8dd\	.	4b\	.	.	.
8GG/J	.	.	8fJ 8G/	.	8b/J	.	.	.	.	.	.	.	.	.	.	8g/J	.	8dd\J	.	.	.	.	.
*Xrep	*	*	*Xrep	*	*Xrep	*	*	*	*	*	*	*	*	*	*	*	*	*	*	*	*	*	*
!	!	!	!	!	!LO:LB:g=original	!	!	!	!	!	!	!	!	!	!	!	!	!	!	!	!	!	!
=6	=6	=6	=6	=6	=6	=6	=6	=6	=6	=6	=6	=6	=6	=6	=6	=6	=6	=6	=6	=6	=6	=6	=6
4C/	x 3	.	4e 4G/	.	8cc\L	.	1r	.	1ryy	1r	.	.	.	.	.	8e/	.	8cc\	.	8cc\	.	8ee\	.
.	.	.	.	.	8ff\	.	.	.	.	.	.	.	.	.	.	8r	.	8r	.	8r	.	8r	.
4GG/	7 5	.	8fL 8G/	.	8a\	.	.	.	.	.	.	.	.	.	.	4g/	.	4dd\	.	4b\	.	4ff\	.
!	!	!	!	!	!LO:TX:t=t	!	!	!	!	!	!	!	!	!	!	!	!	!	!	!	!	!	!
.	.	.	8fJ 8G/	.	8b\J	.	.	.	.	.	.	.	.	.	.	.	.	.	.	.	.	.	.
4C/	x 3	.	4e 4G/	.	8cc\L	.	.	.	.	.	.	.	.	.	.	8e/	.	8cc\	.	8cc\	.	8ee\	.
.	.	.	.	.	8ff\	.	.	.	.	.	.	.	.	.	.	8r	.	8r	.	8r	.	8r	.
4GG/	7 5	.	8fL 8G/	.	8a\	.	.	.	.	.	.	.	.	.	.	4g/	.	4dd\	.	4b\	.	4ff\	.
!	!	!	!	!	!LO:TX:t=t	!	!	!	!	!	!	!	!	!	!	!	!	!	!	!	!	!	!
.	.	.	8fJ 8G/	.	8b\J	.	.	.	.	.	.	.	.	.	.	.	.	.	.	.	.	.	.
!	!	!	!LO:LB:g=original	!	!	!	!	!	!	!	!	!	!	!	!	!	!	!	!	!	!	!	!
=7	=7	=7	=7	=7	=7	=7	=7	=7	=7	=7	=7	=7	=7	=7	=7	=7	=7	=7	=7	=7	=7	=7	=7
*	*	*	*tremolo	*	*	*	*	*	*	*	*	*	*	*	*	*	*	*	*	*	*	*	*
!	!	!	!	!	!LO:TX:t=t	!	!	!	!	!	!	!	!	!	!	!	!	!	!	!	!	!	!
4C/	4_ 2_	.	8f/L	.	2b\	.	1r	.	1ryy	1r	.	.	.	1r	.	2g/	.	2dd\	.	2b\	.	2ff\	.
.	.	.	8G/	.	.	.	.	.	.	.	.	.	.	.	.	.	.	.	.	.	.	.	.
4GG/	.	.	8f/	.	.	.	.	.	.	.	.	.	.	.	.	.	.	.	.	.	.	.	.
.	.	.	8G/J	.	.	.	.	.	.	.	.	.	.	.	.	.	.	.	.	.	.	.	.
*	*	*	*Xtremolo	*	*	*	*	*	*	*	*	*	*	*	*	*	*	*	*	*	*	*	*
.	.	.	.	.	16qqa\LL	.	.	.	.	.	.	.	.	.	.	.	.	.	.	.	.	.	.
.	.	.	.	.	16qqb\JJ	.	.	.	.	.	.	.	.	.	.	.	.	.	.	.	.	.	.
4CC/	x 3	.	4e 4G/	.	4cc\	.	.	.	.	.	.	.	.	.	.	4e/	.	4cc\	.	4cc\	.	4ee\	.
4r	.	.	4r	.	8r	.	.	.	.	.	.	.	.	.	.	4r	.	4r	.	4r	.	4r	.
.	.	.	.	.	8g/	.	.	.	.	.	.	.	.	.	.	.	.	.	.	.	.	.	.
!	!	!	!	!	!	!	!	!	!	!	!	!	!	!LO:LB:g=original	!	!	!	!	!	!	!	!LO:LB:g=original	!
=8	=8	=8	=8||	=8	=8||	=8	=8	=8	=8	=8	=8	=8	=8	=8	=8	=8	=8	=8	=8	=8	=8	=8	=8
!	!	!	!	!	!	!	!	!	!	!	!	!	!	!LO:TX:a:t=Solo	!	!LO:TX:t=7	!	!LO:TX:t=7	!	!LO:TX:t=7	!	!LO:TX:t=7	!
4C/	x 3	.	8e/L	.	8g/	.	1r	.	1ryy	1r	.	.	.	4g\	Be-	00r	.	00r	.	00r	.	00r	.
.	.	.	8G/	.	8r	.	.	.	.	.	.	.	.	.	.	.	.	.	.	.	.	.	.
4r	.	.	8g/	.	8.ee\L	.	.	.	.	.	.	.	.	8.ee\L	-ne-	.	.	.	.	.	.	.	.
.	.	.	8G/J	.	.	.	.	.	.	.	.	.	.	.	.	.	.	.	.	.	.	.	.
.	.	.	.	.	32dd\LL	.	.	.	.	.	.	.	.	32dd\LL	.	.	.	.	.	.	.	.	.
.	.	.	.	.	32cc\JJJ	.	.	.	.	.	.	.	.	32cc\JJJ	.	.	.	.	.	.	.	.	.
4GG/	7 5	.	8f/L	.	8b\	.	.	.	.	.	.	.	.	4b\	-dic-	.	.	.	.	.	.	.	.
.	.	.	8G/	.	8r	.	.	.	.	.	.	.	.	.	.	.	.	.	.	.	.	.	.
4r	.	.	8B/	.	8.ff\L	.	.	.	.	.	.	.	.	8.ff\L	-tus	.	.	.	.	.	.	.	.
.	.	.	8G/J	.	.	.	.	.	.	.	.	.	.	.	.	.	.	.	.	.	.	.	.
.	.	.	.	.	32ee\LL	.	.	.	.	.	.	.	.	32ee\LL	.	.	.	.	.	.	.	.	.
.	.	.	.	.	32dd\JJJ	.	.	.	.	.	.	.	.	32dd\JJJ	.	.	.	.	.	.	.	.	.
=9	=9	=9	=9	=9	=9	=9	=9	=9	=9	=9	=9	=9	=9	=9	=9	=9	=9	=9	=9	=9	=9	=9	=9
4C/	3_ 5_	.	8e/L	.	4.ccS\	.	1r	.	1ryy	1r	.	.	.	4.cc\	qvi	.	.	.	.	.	.	.	.
.	.	.	8G/	.	.	.	.	.	.	.	.	.	.	.	.	.	.	.	.	.	.	.	.
4C/	.	.	8g/	.	.	.	.	.	.	.	.	.	.	.	.	.	.	.	.	.	.	.	.
.	.	.	8g/J	.	8ee\	.	.	.	.	.	.	.	.	8ee\	ve-	.	.	.	.	.	.	.	.
4C/	.	.	8cc/L	.	4gg\	.	.	.	.	.	.	.	.	4gg\	-nit	.	.	.	.	.	.	.	.
.	.	.	8g/	.	.	.	.	.	.	.	.	.	.	.	.	.	.	.	.	.	.	.	.
4r	x x	.	8ee/	.	8r	.	.	.	.	.	.	.	.	8r	.	.	.	.	.	.	.	.	.
.	.	.	8ee/J	.	8gg\	.	.	.	.	.	.	.	.	8gg\	in	.	.	.	.	.	.	.	.
!LO:LB:g=original	!	!	!	!	!	!	!	!	!	!	!	!	!	!	!	!	!	!	!	!	!	!	!
=10	=10	=10	=10	=10	=10	=10	=10	=10	=10	=10	=10	=10	=10	=10	=10	=10	=10	=10	=10	=10	=10	=10	=10
8A\	6 3_	.	8a\L	.	8ff\	.	1r	.	1ryy	1r	.	.	.	(4ff\	no-	.	.	.	.	.	.	.	.
8r	.	.	8cc\	.	8r	.	.	.	.	.	.	.	.	.	.	.	.	.	.	.	.	.	.
8G\	6 _	.	8g\	.	8ee\	.	.	.	.	.	.	.	.	4ee\)	.	.	.	.	.	.	.	.	.
8r	.	.	8cc\J	.	8r	.	.	.	.	.	.	.	.	.	.	.	.	.	.	.	.	.	.
8F\	6 _	.	8f/L	.	8dd\	.	.	.	.	.	.	.	.	4dd\	-mi-	.	.	.	.	.	.	.	.
8r	.	.	8a/	.	8r	.	.	.	.	.	.	.	.	.	.	.	.	.	.	.	.	.	.
!	!	!	!	!	!LO:N:vis=8	!	!	!	!	!	!	!	!	!	!	!	!	!	!	!	!	!	!
8F#X\	5 _	.	8e-X/	.	4cc\	.	.	.	.	.	.	.	.	4cc\	-ne	.	.	.	.	.	.	.	.
!	!	!	!LO:TX:t=P:problem=8g poprawione na 8a	!	!	!	!	!	!	!	!	!	!	!	!	!	!	!	!	!	!	!	!
!	!	!	!LO:TX:b:t=a	!	!	!	!	!	!	!	!	!	!	!	!	!	!	!	!	!	!	!	!
8r	x x	.	8a/J	.	.	.	.	.	.	.	.	.	.	.	.	.	.	.	.	.	.	.	.
=11	=11	=11	=11	=11	=11	=11	=11	=11	=11	=11	=11	=11	=11	=11	=11	=11	=11	=11	=11	=11	=11	=11	=11
4G\	6_ 4_	.	8cc/L	.	2ee\	.	1r	.	1ryy	1r	.	.	.	4.ee\	Do-	.	.	.	.	.	.	.	.
.	.	.	8g/	.	.	.	.	.	.	.	.	.	.	.	.	.	.	.	.	.	.	.	.
4G\	.	.	8en/	.	.	.	.	.	.	.	.	.	.	.	.	.	.	.	.	.	.	.	.
.	.	.	.	.	.	.	.	.	.	.	.	.	.	16qqff/L	.	.	.	.	.	.	.	.	.
.	.	.	.	.	.	.	.	.	.	.	.	.	.	16qqee/J	.	.	.	.	.	.	.	.	.
.	.	.	8g/J	.	.	.	.	.	.	.	.	.	.	8ee\	-mi-	.	.	.	.	.	.	.	.
.	.	.	.	.	16qqff/LL	.	.	.	.	.	.	.	.	.	.	.	.	.	.	.	.	.	.
.	.	.	.	.	16qqee/JJ	.	.	.	.	.	.	.	.	.	.	.	.	.	.	.	.	.	.
4G\	5 3	.	8b/L	.	4dd\	.	.	.	.	.	.	.	.	4dd\	-ni	.	.	.	.	.	.	.	.
.	.	.	8g/	.	.	.	.	.	.	.	.	.	.	.	.	.	.	.	.	.	.	.	.
4r	.	.	8d/	.	8r	.	.	.	.	.	.	.	.	8r	.	.	.	.	.	.	.	.	.
!	!	!	!	!	!	!	!	!	!	!	!	!	!	!LO:TX:t=P:problem=kreska taktowa poprawiona na 8dd	!	!	!	!	!	!	!	!	!
!	!	!	!	!	!	!	!	!	!	!	!	!	!	!LO:TX:t=d	!	!	!	!	!	!	!	!	!
.	.	.	8g/J	.	8dd\	.	.	.	.	.	.	.	.	8dd\	qvi	.	.	.	.	.	.	.	.
!	!	!	!	!	!LO:LB:g=original	!	!	!	!	!	!	!	!	!	!	!	!	!	!	!	!	!	!
=12	=12	=12	=12	=12	=12	=12	=12	=12	=12	=12	=12	=12	=12	=12	=12	=12	=12	=12	=12	=12	=12	=12	=12
4B\	x 3_	.	8f/L	.	8.dd\L	.	1r	.	1ryy	1r	.	.	.	8dd\L	ve-	0r	.	0r	.	0r	.	0r	.
.	.	.	8f/	.	.	.	.	.	.	.	.	.	.	8ee\	.	.	.	.	.	.	.	.	.
.	.	.	.	.	16ee\K	.	.	.	.	.	.	.	.	.	.	.	.	.	.	.	.	.	.
4G\	.	.	8d/	.	8ff\	.	.	.	.	.	.	.	.	8ff\J	-nit	.	.	.	.	.	.	.	.
!	!	!	!	!	!	!	!	!	!	!	!	!	!	!LO:TX:t=P:problem=wykreślona kreska taktowa	!	!	!	!	!	!	!	!	!
.	.	.	8f/J	.	8dd\J	.	.	.	.	.	.	.	.	8dd\	qvi	.	.	.	.	.	.	.	.
!	!	!	!LO:LB:g=original	!	!	!	!	!	!	!	!	!	!	!	!	!	!	!	!	!	!	!	!
4G#X\	.	.	8f/L	.	(4b^<\	.	.	.	.	.	.	.	.	4b\	ve-	.	.	.	.	.	.	.	.
.	.	.	8f/	.	.	.	.	.	.	.	.	.	.	.	.	.	.	.	.	.	.	.	.
4A\	x 3	.	8e/	.	8cc\)	.	.	.	.	.	.	.	.	8cc\	-nit.	.	.	.	.	.	.	.	.
.	.	.	8e/J	.	8r	.	.	.	.	.	.	.	.	8r	.	.	.	.	.	.	.	.	.
=13	=13	=13	=13	=13	=13	=13	=13	=13	=13	=13	=13	=13	=13	=13	=13	=13	=13	=13	=13	=13	=13	=13	=13
*	*	*	*tremolo	*	*	*	*	*	*	*	*	*	*	*	*	*	*	*	*	*	*	*	*
4F\	x 3_	.	8c/L	.	8.a\L	.	1r	.	1ryy	1r	.	.	.	8a\L	in	.	.	.	.	.	.	.	.
.	.	.	8c/	.	.	.	.	.	.	.	.	.	.	8b\	.	.	.	.	.	.	.	.	.
.	.	.	.	.	16b\K	.	.	.	.	.	.	.	.	.	.	.	.	.	.	.	.	.	.
4C\	.	.	8c/	.	8cc\	.	.	.	.	.	.	.	.	8cc\J	.	.	.	.	.	.	.	.	.
.	.	.	8c/J	.	8a\J	.	.	.	.	.	.	.	.	8a\	no-	.	.	.	.	.	.	.	.
4E-X\	.	.	8c/L	.	4f#X/	.	.	.	.	.	.	.	.	4f#X\	-mi-	.	.	.	.	.	.	.	.
.	.	.	8c/	.	.	.	.	.	.	.	.	.	.	.	.	.	.	.	.	.	.	.	.
4En\	x 6	.	8c/	.	8g/	.	.	.	.	.	.	.	.	8g\	-ne	.	.	.	.	.	.	.	.
.	.	.	8c/J	.	8ryy	.	.	.	.	.	.	.	.	8r	.	.	.	.	.	.	.	.	.
=14	=14	=14	=14	=14	=14	=14	=14	=14	=14	=14	=14	=14	=14	=14	=14	=14	=14	=14	=14	=14	=14	=14	=14
!	!	!	!	!	!LO:TX:t=P:problem=mixed beam	!	!	!	!	!	!	!	!	!	!	!	!	!	!	!	!	!	!
4F\	6_ 3_	.	8d 8c/L	.	8g#X/L	.	1r	.	1ryy	1r	.	.	.	4a\	no-	1r	.	1r	.	1r	.	1r	.
.	.	.	8d 8c/	.	8a/	.	.	.	.	.	.	.	.	.	.	.	.	.	.	.	.	.	.
4F\	.	.	8d 8c/	.	8dd\	.	.	.	.	.	.	.	.	8dd\	-mi-	.	.	.	.	.	.	.	.
.	.	.	8d 8c/J	.	8dd\J	.	.	.	.	.	.	.	.	8dd\	-ne	.	.	.	.	.	.	.	.
.	.	.	.	.	16qqff#X/	.	.	.	.	.	.	.	.	.	.	.	.	.	.	.	.	.	.
*	*	*	*Xtremolo	*	*	*	*	*	*	*	*	*	*	*	*	*	*	*	*	*	*	*	*
4F#X\	.	.	8aL 8d/	.	8ee\	.	.	.	.	.	.	.	.	8ee\	Do-	.	.	.	.	.	.	.	.
.	.	.	8a 8d/	.	4dd\	.	.	.	.	.	.	.	.	4dd\	.	.	.	.	.	.	.	.	.
4D\	.	.	8c/	.	.	.	.	.	.	.	.	.	.	.	.	.	.	.	.	.	.	.	.
.	.	.	8c/J	.	8f#X/	.	.	.	.	.	.	.	.	8f#X/	-mi-	.	.	.	.	.	.	.	.
!	!	!	!	!	!	!	!	!	!	!	!	!	!	!	!	!	!	!	!	!LO:LB:g=original	!	!	!
=15	=15	=15	=15	=15	=15	=15	=15	=15	=15	=15	=15	=15	=15	=15	=15	=15	=15	=15	=15	=15	=15	=15	=15
*^	*	*	*	*	*	*	*	*	*	*	*	*	*	*	*	*	*	*	*	*	*	*	*
*cue	*	*	*	*	*	*	*	*	*	*	*	*	*	*	*	*	*	*	*	*	*	*	*	*
4r	4GG	x 5	.	8B/L	.	4g/	.	4r	.	1ryy	1r	.	.	.	4g/	-ni	4r	.	4r	.	4r	.	4r	.
.	.	.	.	8g/J	.	.	.	.	.	.	.	.	.	.	.	.	.	.	.	.	.	.	.	.
*	*	*	*	*tremolo	*	*	*	*	*	*	*	*	*	*	*	*	*	*	*	*	*	*	*	*
!	!	!	!	!LO:TX:t=P:!LO:N:vis=2:problem	!	!	!	!	!	!	!	!	!	!	!	!	!	!	!	!	!	!	!	!
8G/L	4r	.	.	8g/L	.	4r	.	8G\	Be-	.	.	.	.	.	4r	.	8G/L	.	8g/L	.	8g/L	.	8gg\L	.
8G/J	.	.	.	8g/	.	.	.	8G\	-ne-	.	.	.	.	.	.	.	8G/J	.	8g/J	.	8g/J	.	8gg\J	.
4G/	2r	.	.	8g/	.	2r	.	4G\	-dic-	.	.	.	.	.	2r	.	4G/	.	4g/	.	4g/	.	4gg\	.
.	.	.	.	8g/	.	.	.	.	.	.	.	.	.	.	.	.	.	.	.	.	.	.	.	.
4G/	.	.	.	8g/	.	.	.	4G\	-tus	.	.	.	.	.	.	.	4G/	.	4g/	.	4g/	.	4gg\	.
.	.	.	.	8g/J	.	.	.	.	.	.	.	.	.	.	.	.	.	.	.	.	.	.	.	.
*Xcue	*	*	*	*	*	*	*	*	*	*	*	*	*	*	*	*	*	*	*	*	*	*	*	*
!	!	!	!	!	!	!	!	!	!	!	!	!	!	!	!LO:PB:g=original	!	!	!	!	!	!	!	!	!
=16	=16	=16	=16	=16	=16	=16	=16	=16	=16	=16	=16	=16	=16	=16	=16	=16	=16	=16	=16	=16	=16	=16	=16	=16
!	!	!	!	!	!	!	!	!	!	!	!	!	!	!	!	!	!	!	!LO:N:vis=2	!	!	!	!	!
4r	1G	.	.	8g/L	.	4r	.	1G	qvi	1ryy	4r	.	.	.	4r	.	1G	.	1g	.	1g	.	1gg	.
.	.	.	.	8g/	.	.	.	.	.	.	.	.	.	.	.	.	.	.	.	.	.	.	.	.
8f\L	.	4 2_	.	8g/	.	8.b\L	.	.	.	.	8f\	Be-	.	.	8b\	Be-	.	.	.	.	.	.	.	.
8f\J	.	.	.	8g/J	.	.	.	.	.	.	8f\	-ne-	.	.	8b\	-ne-	.	.	.	.	.	.	.	.
.	.	.	.	.	.	16b\Jk	.	.	.	.	.	.	.	.	.	.	.	.	.	.	.	.	.	.
4e\	.	6 _	.	8g/L	.	4cc\	.	.	.	.	4e\	-dic-	.	.	4cc\	-dic-	.	.	.	.	.	.	.	.
.	.	.	.	8g/	.	.	.	.	.	.	.	.	.	.	.	.	.	.	.	.	.	.	.	.
4c\	.	10 _	.	8g/	.	8.ee\L	.	.	.	.	8cc\	-tus	.	.	8ee\	-tus	.	.	.	.	.	.	.	.
.	.	.	.	8g/J	.	.	.	.	.	.	8cc\	qvi	.	.	8ee\	qvi	.	.	.	.	.	.	.	.
.	.	.	.	.	.	16ee\Jk	.	.	.	.	.	.	.	.	.	.	.	.	.	.	.	.	.	.
*v	*v	*	*	*	*	*	*	*	*	*	*	*	*	*	*	*	*	*	*	*	*	*	*	*
!LO:LB:g=original	!	!	!	!	!	!	!	!	!	!	!	!	!	!	!	!LO:LB:g=original	!	!	!	!	!	!	!
=17	=17	=17	=17	=17	=17	=17	=17	=17	=17	=17	=17	=17	=17	=17	=17	=17	=17	=17	=17	=17	=17	=17	=17
*^	*	*	*	*	*	*	*	*	*	*	*	*	*	*	*	*	*	*	*	*	*	*	*
4G\	4ryy	x 5	.	8g/L	.	4dd\	.	4G\	ve-	1ryy	4b\	ve-	.	.	4dd\	ve-	4G/	.	4g/	.	4g/	.	4gg\	.
.	.	.	.	8g/	.	.	.	.	.	.	.	.	.	.	.	.	.	.	.	.	.	.	.	.
*cue	*	*	*	*	*	*	*	*	*	*	*	*	*	*	*	*	*	*	*	*	*	*	*	*
!	!	!	!	!	!	!	!	!	!	!	!	!	!	!	!	!	!	!	!	!	!LO:N:vis=8	!	!	!
8G/L	4r	.	.	8g/	.	4g/	.	8G\	-nit	.	4b\	-nit	.	.	4g\	-nit	8G/L	.	8g/L	.	8.g/L	.	8gg\L	.
8G/J	.	.	.	8g/J	.	.	.	8G\	in	.	.	.	.	.	.	.	8G/J	.	8g/J	.	.	.	8gg\J	.
.	.	.	.	.	.	.	.	.	.	.	.	.	.	.	.	.	.	.	.	.	16g/Jk	.	.	.
4G/	2r	.	.	8g/L	.	2r	.	4G\	no-	.	2r	.	.	.	2r	.	4G/	.	4g/	.	4g/	.	4gg\	.
.	.	.	.	8g/	.	.	.	.	.	.	.	.	.	.	.	.	.	.	.	.	.	.	.	.
4G/	.	.	.	8g/	.	.	.	4G\	-mi-	.	.	.	.	.	.	.	4G/	.	4g/	.	4g/	.	4gg\	.
.	.	.	.	8g/J	.	.	.	.	.	.	.	.	.	.	.	.	.	.	.	.	.	.	.	.
*Xcue	*	*	*	*	*	*	*	*	*	*	*	*	*	*	*	*	*	*	*	*	*	*	*	*
!	!	!	!	!	!	!LO:LB:g=original	!	!	!	!	!	!	!	!	!	!	!	!	!LO:LB:g=original	!	!	!	!	!
=18	=18	=18	=18	=18	=18	=18	=18	=18	=18	=18	=18	=18	=18	=18	=18	=18	=18	=18	=18	=18	=18	=18	=18	=18
4r	1G	.	.	8g/L	.	4r	.	2G\	-ne	1ryy	4r	.	.	.	4r	.	1G	.	1g	.	1g	.	1gg	.
.	.	.	.	8g/	.	.	.	.	.	.	.	.	.	.	.	.	.	.	.	.	.	.	.	.
*	*	*	*	*	*	*	*	*	*	*	*	*ij	*	*	*	*ij	*	*	*	*	*	*	*	*
8f\L	.	4 2_	.	8g/	.	8.b\L	.	.	.	.	8f\	Be-	.	.	8b\	Be-	.	.	.	.	.	.	.	.
8f\J	.	.	.	8g/J	.	.	.	.	.	.	8f\	-ne-	.	.	8b\	-ne-	.	.	.	.	.	.	.	.
.	.	.	.	.	.	16b\Jk	.	.	.	.	.	.	.	.	.	.	.	.	.	.	.	.	.	.
4e\	.	6 _	.	8g/L	.	4cc\	.	4G\	do-	.	4e\	-dic-	.	.	4cc\	-dic-	.	.	.	.	.	.	.	.
.	.	.	.	8g/	.	.	.	.	.	.	.	.	.	.	.	.	.	.	.	.	.	.	.	.
4c\	.	10 _	.	8g/	.	8.ee\L	.	4G\	-mi-	.	8cc\	-tus	.	.	8ee\	-tus	.	.	.	.	.	.	.	.
.	.	.	.	8g/J	.	.	.	.	.	.	8cc\	qvi	.	.	8ee\	qvi	.	.	.	.	.	.	.	.
.	.	.	.	.	.	16ee\Jk	.	.	.	.	.	.	.	.	.	.	.	.	.	.	.	.	.	.
*v	*v	*	*	*	*	*	*	*	*	*	*	*	*	*	*	*	*	*	*	*	*	*	*	*
*	*	*	*Xtremolo	*	*	*	*	*	*	*	*	*	*	*	*	*	*	*	*	*	*	*	*
!	!	!	!	!	!	!	!LO:LB:g=original	!	!	!	!	!	!	!	!	!	!	!	!	!	!	!	!
=19	=19	=19	=19	=19	=19	=19	=19	=19	=19	=19	=19	=19	=19	=19	=19	=19	=19	=19	=19	=19	=19	=19	=19
4G\	5 3	.	4g/	.	4dd\	.	4G\	-ni	1ryy	4g\	ve-	.	.	1dd	ve-	4G/	.	4g/	.	4g\	.	1dd	.
*	*	*	*	*	*^	*	*	*	*	*	*	*	*	*	*	*	*	*	*	*	*	*	*
4r	.	.	4r	.	2.dd/	4r	.	4r	.	.	4g\	-nit	.	.	.	.	4r	.	4r	.	4r	.	.	.
*	*	*	*	*	*	*	*	*	*	*	*	*Xij	*	*	*	*	*	*	*	*	*	*	*	*
2r	.	.	2r	.	.	2r	.	2r	.	.	2r	.	.	.	.	.	2r	.	2r	.	2r	.	.	.
*	*	*	*	*	*v	*v	*	*	*	*	*	*	*	*	*	*	*	*	*	*	*	*	*	*
!	!	!	!	!	!	!	!	!	!	!LO:LB:g=original	!	!	!	!	!	!	!	!	!	!	!	!	!
=20	=20	=20	=20	=20	=20	=20	=20	=20	=20	=20	=20	=20	=20	=20	=20	=20	=20	=20	=20	=20	=20	=20	=20
*	*	*	*	*	*	*below	*	*	*	*	*	*	*	*	*	*	*	*	*	*	*	*	*
!	!	!	!	!LO:DY:rj	!	!LO:HP:t=cres	!LO:TX:t=1	!	!	!LO:TX:t=1	!	!	!	!	!	!	!	!	!	!	!	!	!
2F\	x -	.	4a-X 4B-X/	f	4dd 4f/	<	1r	.	1ryy	1r	.	.	.	4dd\	-nit	4b-X\	f	4dd\	f	4a-X/	f	4ff\	.
*	*	*	*	*	*	*	*	*	*	*	*	*	*	*	*Xij	*	*	*	*	*	*	*	*
.	.	.	8.a-L 8.B-/	.	8.ddL 8.f^/	.	.	.	.	.	.	.	.	4r	.	8.b-\L	.	8.dd\L	.	8a-/L	.	8.ff\L	.
.	.	.	.	.	.	.	.	.	.	.	.	.	.	.	.	.	.	.	.	8a-/J	.	.	.
.	.	.	16a-Jk 16B-/	.	16ddJk 16f/	.	.	.	.	.	.	.	.	.	.	16b-\Jk	.	16dd\Jk	.	.	.	16ff\Jk	.
2BB-X/	-7 5	.	4a- 4B-/	.	4dd 4f/	.	.	.	.	.	.	.	.	2r	.	4b-\	.	4dd\	.	4a-/	.	4ff\	.
.	.	.	4a- 4B-/	.	4dd 4f/	.	.	.	.	.	.	.	.	.	.	4b-\	.	4dd\	.	4a-/	.	4ff\	.
!	!	!	!LO:LB:g=original	!	!	!	!	!	!	!	!	!	!	!	!	!	!	!	!	!	!	!	!
=21	=21	=21	=21	=21	=21	=21	=21	=21	=21	=21	=21	=21	=21	=21	=21	=21	=21	=21	=21	=21	=21	=21	=21
!	!	!	!	!	!	!LO:DY:rj	!	!	!	!	!	!	!	!	!	!	!	!	!	!	!	!	!
4E-X\	x 3	.	8g/L	.	4b-X\	f	4E-X\	Be-	1ryy	4g\	Be-	.	.	4b-X\	Be-	2g/	.	2b-X\	p	2g/	.	2ee-X\	.
.	.	.	8B-X/J	.	.	.	.	.	.	.	.	.	.	.	.	.	.	.	.	.	.	.	.
4r	.	.	8b-X/L	.	8.gg\L	.	4G\	-ne-	.	4b-X\	-ne-	.	.	4ee-X\	-ne-	.	.	.	.	.	.	.	.
.	.	.	8b-J 8g/	.	.	.	.	.	.	.	.	.	.	.	.	.	.	.	.	.	.	.	.
.	.	.	.	.	(32ff\LL	.	.	.	.	.	.	.	.	.	.	.	.	.	.	.	.	.	.
.	.	.	.	.	32ee-X\JJJ)	.	.	.	.	.	.	.	.	.	.	.	.	.	.	.	.	.	.
4BB-X/	x 5	.	8a-X/L	.	4dd\	.	4B-X\	-dic-	.	4f\	-dic-	.	.	4dd\	-dic-	2b-X\	.	2b-\	.	2a-X/	.	2dd\	.
.	.	.	8B-/	.	.	.	.	.	.	.	.	.	.	.	.	.	.	.	.	.	.	.	.
4r	.	.	8f/	.	8.aa-X\L	.	4A-X\	-tus	.	4a-X\	-tus	.	.	4ff\	-tus	.	.	.	.	.	.	.	.
.	.	.	8B-/J	.	.	.	.	.	.	.	.	.	.	.	.	.	.	.	.	.	.	.	.
.	.	.	.	.	(32gg\LL	.	.	.	.	.	.	.	.	.	.	.	.	.	.	.	.	.	.
.	.	.	.	.	32ff\JJJ)	.	.	.	.	.	.	.	.	.	.	.	.	.	.	.	.	.	.
=22	=22	=22	=22	=22	=22	=22	=22	=22	=22	=22	=22	=22	=22	=22	=22	=22	=22	=22	=22	=22	=22	=22	=22
*	*	*	*tremolo	*	*	*	*	*	*	*	*	*	*	*	*	*	*	*	*	*	*	*	*
!	!	!	!	!	!	!	!	!	!	!	!	!	!	!	!	!	!	!LO:SIC:v:s=2.b-\	!	!	!	!	!
4E-X\	x 3	.	8g/L	.	4.ee-XS\	.	4G\	qvi	1ryy	4.g\	qvi	.	.	4.ee-X\	qvi	2.g/	.	2.b\	.	2.g/	.	2.ee-X\	.
.	.	.	8B-X/	.	.	.	.	.	.	.	.	.	.	.	.	.	.	.	.	.	.	.	.
4E-\	.	.	8g/	.	.	.	4E-X\	ve-	.	.	.	.	.	.	.	.	.	.	.	.	.	.	.
.	.	.	8B-X/J	.	8gg\	.	.	.	.	8b-X\	ve-	.	.	8gg\	ve-	.	.	.	.	.	.	.	.
*	*	*	*Xtremolo	*	*	*	*	*	*	*	*	*	*	*	*	*	*	*	*	*	*	*	*
4E-\	.	.	4g/	.	4bb-X\	.	4E-\	-nit	.	4g\	-nit	.	.	4b-X\	-nit	.	.	.	.	.	.	.	.
!	!	!	!	!	!LO:N:vis=8	!	!	!	!	!LO:SIC:v:s=4e-\	!	!	!	!	!	!	!	!	!	!	!	!	!
8.G\L	6 -_	.	8.e-X/L	.	8.b-X/L	.	4G\	in	.	4e\	in	.	.	4b-\	in	4r	.	4r	.	4r	.	4r	.
16G\Jk	.	.	16e-/Jk	.	16b-/Jk	.	.	.	.	.	.	.	.	.	.	.	.	.	.	.	.	.	.
!	!	!	!	!	!	!	!	!	!	!	!	!	!	!LO:LB:g=original	!	!	!	!	!	!	!	!	!
=23	=23	=23	=23	=23	=23	=23	=23	=23	=23	=23	=23	=23	=23	=23	=23	=23	=23	=23	=23	=23	=23	=23	=23
!	!	!	!	!	!LO:SIC:v:s=(8b-\L	!	!	!	!	!	!	!	!	!	!	!LO:TX:t=1	!	!LO:TX:t=1	!	!LO:TX:t=1	!	!LO:TX:t=1	!
4A-X\	6 _	.	4f/	.	(8b\L	.	4A-X\	no-	1ryy	4f\	no-	.	.	4b-X\	no-	1r	.	1r	.	1r	.	1r	.
.	.	.	.	.	8bb-X\)	.	.	.	.	.	.	.	.	.	.	.	.	.	.	.	.	.	.
!	!	!	!LO:N:vis=8	!	!LO:SIC:v:s=8b-\	!	!	!	!	!	!	!	!	!	!	!	!	!	!	!	!	!	!
!	!	!	!LO:SIC:v:s=8.e-/L	!	!	!	!	!	!	!	!	!	!	!	!	!	!	!	!	!	!	!	!
8.G\L	6 _	.	8.e/L	.	8b\	.	8.G\	-mi-	.	8e-X\	-mi-	.	.	8b-\	-mi-	.	.	.	.	.	.	.	.
!	!	!	!	!	!LO:SIC:v:s=8b-\J	!	!	!	!	!	!	!	!	!	!	!	!	!	!	!	!	!	!
.	.	.	.	.	8b\J	.	.	.	.	8e-\	-ne	.	.	8b-\	-ne	.	.	.	.	.	.	.	.
!	!	!	!LO:SIC:v:s=16e-/Jk	!	!	!	!	!	!	!	!	!	!	!	!	!	!	!	!	!	!	!	!
16G\Jk	.	.	16e/Jk	.	.	.	16G\	-ne	.	.	.	.	.	.	.	.	.	.	.	.	.	.	.
!	!	!	!	!	!LO:SIC:v:s=8b-\L	!	!	!	!	!	!	!	!	!	!	!	!	!	!	!	!	!	!
4F\	10 _	.	4d/	.	8b\L	.	4F\	do-	.	4a-X\	Do-	.	.	4b-\	Do-	.	.	.	.	.	.	.	.
.	.	.	.	.	8bb-\	.	.	.	.	.	.	.	.	.	.	.	.	.	.	.	.	.	.
!	!	!	!	!	!LO:SIC:v:s=8b-\	!	!	!	!	!	!	!	!	!	!	!	!	!	!	!	!	!	!
8.E-X\L	10 _	.	8.g/L	.	8b\	.	4E-X\	-mi-	.	4g\	-mi-	.	.	4b-\	-mi-	.	.	.	.	.	.	.	.
!	!	!	!	!	!LO:SIC:v:s=8b-\J	!	!	!	!	!	!	!	!	!	!	!	!	!	!	!	!	!	!
.	.	.	.	.	8b\J	.	.	.	.	.	.	.	.	.	.	.	.	.	.	.	.	.	.
16E-\Jk	.	.	16g/Jk	.	.	.	.	.	.	.	.	.	.	.	.	.	.	.	.	.	.	.	.
!LO:LB:g=original	!	!	!	!	!LO:LB:g=original	!	!	!	!	!	!	!	!	!	!	!	!	!	!	!	!	!	!
=24	=24	=24	=24	=24	=24-	=24	=24	=24	=24	=24	=24	=24	=24	=24	=24	=24	=24	=24	=24	=24	=24	=24	=24
!	!	!	!	!	!	!	!	!	!	!	!	!	!	!	!LO:SIC:v:s=4b-\	!	!	!	!	!	!	!	!
2.D\	-6 3	.	2.a-X 2.B-X/	.	8b-X/	.	4D\	-ni	1ryy	4f\	-ni	.	.	4b\	-ni	4r	.	4r	.	4r	.	4r	.
.	.	.	.	.	8.bb-X\L	.	.	.	.	.	.	.	.	.	.	.	.	.	.	.	.	.	.
!	!	!	!	!	!	!	!	!	!	!	!	!	!	!	!	!	!	!	!	!LO:SIC:v:s=2.b-\	!	!	!
.	.	.	.	.	.	.	4r	.	.	4r	.	.	.	4r	.	2.b-X\	.	2.b-\	.	2.bnX\	.	2.dd\	.
.	.	.	.	.	16aa-X\L	.	.	.	.	.	.	.	.	.	.	.	.	.	.	.	.	.	.
.	.	.	.	.	16ff\	.	.	.	.	.	.	.	.	.	.	.	.	.	.	.	.	.	.
.	.	.	.	.	16dd\JJ	.	.	.	.	.	.	.	.	.	.	.	.	.	.	.	.	.	.
.	.	.	.	.	16b-/LL	.	2r	.	.	2r	.	.	.	2r	.	.	.	.	.	.	.	.	.
.	.	.	.	.	16a-X/	.	.	.	.	.	.	.	.	.	.	.	.	.	.	.	.	.	.
.	.	.	.	.	16f/	.	.	.	.	.	.	.	.	.	.	.	.	.	.	.	.	.	.
.	.	.	.	.	16d/JJ	.	.	.	.	.	.	.	.	.	.	.	.	.	.	.	.	.	.
!	!	!	!	!	!LO:SIC:v:s=8B-/L	!	!	!	!	!	!	!	!	!	!	!	!	!	!	!	!	!	!
4r	.	.	8r	.	8B/L	.	.	.	.	.	.	.	.	.	.	.	.	.	.	.	.	.	.
.	.	.	8G/	.	8Bn/J	.	.	.	.	.	.	.	.	.	.	.	.	.	.	.	.	.	.
!	!	!	!	!	!	!	!	!	!	!	!	!	!	!	!	!	!	!	!	!LO:LB:g=original	!	!	!
=25	=25	=25	=25	=25	=25	=25	=25	=25	=25	=25	=25	=25	=25	=25	=25	=25	=25	=25	=25	=25	=25	=25	=25
*	*	*	*	*	*	*	*	*	*	*	*	*	*	*	*ij	*	*	*	*	*	*	*	*
4C/	x -	.	8G/L	.	8c/L	.	4C/	Be-	1ryy	4e-X\	Be-	.	.	4g\	Be-	2G/	.	2g/	.	2e-X/	.	2cc\	.
!	!	!	!LO:SIC:v:s=8e-/	!	!	!	!	!	!	!	!	!	!	!	!	!	!	!	!	!	!	!	!
.	.	.	8en/	.	8g/J	.	.	.	.	.	.	.	.	.	.	.	.	.	.	.	.	.	.
4r	.	.	8g/	.	8.ee-X\L	.	4E-X\	-ne-	.	4g\	-ne-	.	.	4cc\	-ne-	.	.	.	.	.	.	.	.
.	.	.	8G/J	.	.	.	.	.	.	.	.	.	.	.	.	.	.	.	.	.	.	.	.
.	.	.	.	.	32dd\LL	.	.	.	.	.	.	.	.	.	.	.	.	.	.	.	.	.	.
.	.	.	.	.	32cc\JJJ	.	.	.	.	.	.	.	.	.	.	.	.	.	.	.	.	.	.
4G\	5 n3	.	8Bn/L	.	8G/L	.	4G\	-dic-	.	4d\	-dic-	.	.	4b\	-dic-	2G/	.	2g/	.	2f/	.	2dd\	.
.	.	.	8d/	.	8g/J	.	.	.	.	.	.	.	.	.	.	.	.	.	.	.	.	.	.
4r	.	.	8B/	.	8.ff\L	.	4F\	-tus	.	4f\	-tus	.	.	4dd\	-tus	.	.	.	.	.	.	.	.
.	.	.	8f/J	.	.	.	.	.	.	.	.	.	.	.	.	.	.	.	.	.	.	.	.
.	.	.	.	.	32ee-\LL	.	.	.	.	.	.	.	.	.	.	.	.	.	.	.	.	.	.
.	.	.	.	.	32dd\JJJ	.	.	.	.	.	.	.	.	.	.	.	.	.	.	.	.	.	.
!	!	!	!LO:LB:g=original	!	!	!	!LO:LB:g=original	!	!	!	!	!	!	!	!	!	!	!	!	!	!	!LO:LB:g=original	!
=26	=26	=26	=26	=26	=26	=26	=26	=26	=26	=26	=26	=26	=26	=26	=26	=26	=26	=26	=26	=26	=26	=26	=26
*	*	*	*tremolo	*	*	*	*	*	*	*	*	*	*	*	*	*	*	*	*	*	*	*	*
4C/	x -	.	8e-X/L	.	4.ccS\	.	4E-X\	qvi	1ryy	4.e-X\	qvi	.	.	4.cc\	qvi	2.G/	.	2.g/	.	4e-X/	.	2.cc\	.
.	.	.	8G/	.	.	.	.	.	.	.	.	.	.	.	.	.	.	.	.	.	.	.	.
4C/	.	.	8e-/	.	.	.	4C\	ve-	.	.	.	.	.	.	.	.	.	.	.	4r	.	.	.
!	!	!	!	!	!	!	!	!	!	!LO:N:vis=4	!	!	!	!	!	!	!	!	!	!	!	!	!
.	.	.	8G/J	.	8ee-X\	.	.	.	.	8g\	ve-	.	.	8ee-X\	ve-	.	.	.	.	.	.	.	.
*	*	*	*Xtremolo	*	*	*	*	*	*	*	*	*	*	*	*	*	*	*	*	*	*	*	*
4C/	.	.	4e-/	.	4gg\	.	4C\	-nit	.	4e-\	-nit	.	.	4g\	-nit	.	.	.	.	2r	.	.	.
*	*	*	*	*	*	*	*	*ij	*	*	*	*	*	*	*	*	*	*	*	*	*	*	*
!	!	!	!	!	!LO:N:vis=8	!	!	!	!	!	!	!	!	!	!	!	!	!	!	!	!	!	!
8.E-X\L	6 3_	.	8.c/L	.	8.g/L	.	8E-\	Be-	.	4e-\	in	.	.	4g\	in	4r	.	4r	.	.	.	4r	.
.	.	.	.	.	.	.	8E-\	-ne-	.	.	.	.	.	.	.	.	.	.	.	.	.	.	.
16E-\Jk	.	.	16c/Jk	.	16g/Jk	.	.	.	.	.	.	.	.	.	.	.	.	.	.	.	.	.	.
!	!	!	!	!	!	!	!	!	!	!LO:LB:g=original	!	!	!	!	!	!	!	!	!	!	!	!	!
=27	=27	=27	=27	=27	=27	=27	=27	=27	=27	=27	=27	=27	=27	=27	=27	=27	=27	=27	=27	=27	=27	=27	=27
!	!	!	!	!	!	!	!	!	!	!	!	!	!	!	!	!LO:TX:t=8	!	!LO:TX:t=8	!	!LO:TX:t=4	!	!LO:TX:t=1	!
4F\	6 _	.	4d/	.	(8.g/L	.	4F\	-dic-	1ryy	4d\	no-	.	.	4g\	no-	00r	.	00r	.	00r	.	1r	.
.	.	.	.	.	16G/Jk)	.	.	.	.	.	.	.	.	.	.	.	.	.	.	.	.	.	.
8.E-X\L	6 _	.	8.c/L	.	8g/L	.	4E-X\	-tus	.	8c\	-mi-	.	.	8g\	-mi-	.	.	.	.	.	.	.	.
.	.	.	.	.	8g/J	.	.	.	.	8c\	-ne	.	.	8g\	-ne	.	.	.	.	.	.	.	.
16E-\Jk	.	.	(16c/Jk	.	.	.	.	.	.	.	.	.	.	.	.	.	.	.	.	.	.	.	.
4D\	10 _	.	4Bn/)	.	8g/L	.	4D\	qvi	.	4f\	Do-	.	.	4g\	Do-	.	.	.	.	.	.	.	.
.	.	.	.	.	8G/	.	.	.	.	.	.	.	.	.	.	.	.	.	.	.	.	.	.
!	!	!	!LO:N:vis=8	!	!	!	!	!	!	!	!	!	!	!	!	!	!	!	!	!	!	!	!
4C\	10 _	.	8.e-X/L	.	8g/	.	4C\	ve-	.	4e-X\	-mi-	.	.	4g\	-mi-	.	.	.	.	.	.	.	.
.	.	.	.	.	8g/J	.	.	.	.	.	.	.	.	.	.	.	.	.	.	.	.	.	.
.	.	.	16e-/Jk	.	.	.	.	.	.	.	.	.	.	.	.	.	.	.	.	.	.	.	.
!	!	!	!	!	!LO:LB:g=original	!	!	!	!	!	!	!	!	!	!	!	!	!	!	!	!	!	!
=28	=28	=28	=28	=28	=28	=28	=28	=28	=28	=28	=28	=28	=28	=28	=28	=28	=28	=28	=28	=28	=28	=28	=28
4GG/	8_ 5_	.	8dL 8Bn/	.	8g/L	.	4GG/	-nit	1ryy	4d\	-ni	.	.	8g\	ni	.	.	.	.	.	.	2r	.
*	*	*	*	*	*	*	*	*Xij	*	*	*	*	*	*	*Xij	*	*	*	*	*	*	*	*
.	.	.	8d 8B/	.	8dd/	.	.	.	.	.	.	.	.	8dd\	qvi	.	.	.	.	.	.	.	.
4GG/	.	.	8g/	.	8bn/	.	4r	.	.	4r	.	.	.	8bn\L	ve-	.	.	.	.	.	.	.	.
.	.	.	8d/J	.	8g/J	.	.	.	.	.	.	.	.	8g\J	.	.	.	.	.	.	.	.	.
!	!	!	!	!	!LO:TX:t=t	!	!	!	!	!	!	!	!	!LO:TX:t=P:problem=4f# poprawione na 2f#	!	!	!	!	!	!	!	!	!
4GG/	n7_ 5-_ 4_	.	8A/L	.	2f#X/	.	8r	.	.	8r	.	.	.	2f#X\	-nit	.	.	.	.	.	.	8r	.
.	.	.	8e-X/	.	.	.	8c\	qvi	.	8f#X\L	qvi	.	.	.	.	.	.	.	.	.	.	8ee-X\L	.
!	!	!	!	!	!	!	!LO:TX:t=P:problem=chorągiewka poprawiona na belkę	!	!	!	!	!	!	!	!	!	!	!	!	!	!	!	!
4GG/	.	.	8c/	.	.	.	8A\L	ve-	.	8an\J	.	.	.	.	.	.	.	.	.	.	.	8cc\	.
.	.	.	8A/J	.	.	.	8F#\J	.	.	8cc\	ve-	.	.	.	.	.	.	.	.	.	.	8a\J	.
.	.	.	.	.	16qqen/LL	.	.	.	.	.	.	.	.	.	.	.	.	.	.	.	.	.	.
.	.	.	.	.	16qqf#/JJ	.	.	.	.	.	.	.	.	.	.	.	.	.	.	.	.	.	.
=29	=29	=29	=29	=29	=29	=29	=29	=29	=29	=29	=29	=29	=29	=29	=29	=29	=29	=29	=29	=29	=29	=29	=29
4GG/	8 5_ x	.	8dL 8Bn/	.	8g/L	.	4G\	-nit	1ryy	4bn\	-nit	.	.	8r	.	.	.	.	.	.	.	4g/	.
.	.	.	.	.	16qqee/	.	.	.	.	.	.	.	.	.	.	.	.	.	.	.	.	.	.
.	.	.	8d 8B/	.	8dd/	.	.	.	.	.	.	.	.	8dd\	in	.	.	.	.	.	.	.	.
.	.	.	.	.	8qqcc/	.	.	.	.	.	.	.	.	.	.	.	.	.	.	.	.	.	.
4GG/	.	.	8g/	.	8bn/	.	4r	.	.	4r	.	.	.	8b'\L	no-	.	.	.	.	.	.	4r	.
.	.	.	.	.	16qqa/	.	.	.	.	.	.	.	.	.	.	.	.	.	.	.	.	.	.
.	.	.	8d/J	.	8g/J	.	.	.	.	.	.	.	.	8g'\J	-mi-	.	.	.	.	.	.	.	.
!	!	!	!	!	!LO:TX:t=t	!	!	!	!	!	!	!	!	!	!	!	!	!	!	!	!	!LO:TX:t=P:problem=brak 8r	!
4GG/	7# 6-	.	8A/L	.	2f#X/	.	8r	.	.	8r	.	.	.	2f#X/	-ne	.	.	.	.	.	.	8ryy	.
.	.	.	8e-X/	.	.	.	8c\	qvi	.	8f#X\	[[qvi	in	.	.	.	.	.	.	.	.	.	8ee-X\L	.
4GG/	.	.	8c/	.	.	.	8A\L	ve-	.	8a\L	ve-]]	no	.	.	.	.	.	.	.	.	.	8cc\	.
.	.	.	8A/J	.	.	.	8F#X\J	.	.	8cc\J	.	.	.	.	.	.	.	.	.	.	.	8a\J	.
.	.	.	.	.	16qqe/LL	.	.	.	.	.	.	.	.	.	.	.	.	.	.	.	.	.	.
.	.	.	.	.	16qqf#/JJ	.	.	.	.	.	.	.	.	.	.	.	.	.	.	.	.	.	.
!	!	!	!	!	!	!	!	!	!	!	!	!	!	!LO:LB:g=original	!	!	!	!	!	!	!	!	!
=30	=30	=30	=30	=30	=30	=30	=30	=30	=30	=30	=30	=30	=30	=30	=30	=30	=30	=30	=30	=30	=30	=30	=30
!	!	!	!	!	!	!	!	!	!	!	!	!	!	!	!	!	!	!	!	!	!	!LO:TX:t=1	!
4GG/	x 5	.	8G/L	.	4.gS/	.	4.G\	-nit	1ryy	4.b\	-mi-	.	.	4.gS\	Do-	.	.	.	.	.	.	1r	.
.	.	.	8G/	.	.	.	.	.	.	.	.	.	.	.	.	.	.	.	.	.	.	.	.
8G\L	x 8	.	8G/	.	.	.	.	.	.	.	.	.	.	.	.	.	.	.	.	.	.	.	.
8F#X|\J	x 3	.	8f#X/J	.	8a/	.	8F#X\	in	.	8a\	-ne	.	.	8a\	.	.	.	.	.	.	.	.	.
!	!	!	!LO:LB:g=original	!	!	!	!	!	!	!	!	!	!	!	!	!	!	!	!	!	!	!	!
8Fn|\L	x 4	.	8g\L	.	8b/L	.	8Fn\L	no-	.	8g\L	Do-	.	.	8b\L	.	.	.	.	.	.	.	.	.
8E|\	x 6	.	8a\	.	8cc/	.	8E\	.	.	8a\	.	.	.	8cc\	.	.	.	.	.	.	.	.	.
8D|\	x 8	.	8b\	.	8dd/	.	8D\	.	.	8b\	.	.	.	8dd\	.	.	.	.	.	.	.	.	.
8C|\J	x 10	.	8cc\J	.	8ee/J	.	8C\J	.	.	8cc\J	.	.	.	8ee\J	.	.	.	.	.	.	.	.	.
=31	=31	=31	=31	=31	=31	=31	=31	=31	=31	=31	=31	=31	=31	=31	=31	=31	=31	=31	=31	=31	=31	=31	=31
4BBn\	x 5	.	4dd\	.	4ff\	.	4BBn/	-mi-	1ryy	4dd\	-mi-	.	.	4ff\	-mi-	00r	.	00r	.	4b\	.	4ff\	.
4C\	x 3	.	4dd\	.	4ee\	.	4C/	-ne	.	4cc\	-ni	.	.	4ee\	-ni	.	.	.	.	4cc\	.	4ee\	.
!	!	!	!	!	!	!	!LO:TX:t=P:problem=4r poprawiona na 2r	!	!	!	!	!	!	!	!	!	!	!	!	!	!	!	!
2r	.	.	2r	.	4r	.	2r	.	.	2r	.	.	.	4r	.	.	.	.	.	2r	.	2r	.
!	!	!	!	!	!	!	!	!	!	!	!	!	!	!LO:TX:t=d	!	!	!	!	!	!	!	!	!
.	.	.	.	.	4dd\	.	.	.	.	.	.	.	.	4dd 4b\	be-	.	.	.	.	.	.	.	.
!LO:PB:g=original	!	!	!	!	!	!	!LO:LB:g=original	!	!	!LO:LB:g=original	!	!	!	!	!	!	!	!	!	!	!	!	!
=32	=32	=32	=32	=32	=32	=32	=32	=32	=32	=32	=32	=32	=32	=32	=32	=32	=32	=32	=32	=32	=32	=32	=32
!	!	!	!	!	!	!	!	!	!	!	!	!	!	!	!	!	!	!	!	!LO:N:vis=2	!	!	!
8r	.	.	8r	.	8dd\L	.	8r	.	1ryy	8r	.	.	.	8dd\L	-ne-	.	.	.	.	1f	.	1a	p
8F\L	6_ 3_	.	8aL 8d/	.	8cc#X\	.	8F\	Be-	.	8a\	Be-	.	.	8cc#X\	.	.	.	.	.	.	.	.	.
8F\	.	.	8a 8d/	.	8dd\	.	8F\	-ne-	.	8a\	-ne-	.	.	8dd\	.	.	.	.	.	.	.	.	.
8F\J	.	.	8aJ 8d/	.	8ee\J	.	8F\	-dic-	.	8a\	-dic-	.	.	8ee\J	.	.	.	.	.	.	.	.	.
4F\	.	.	4a 4d/	.	4.dd\	.	4F\	-tus	.	4a\	-tus	.	.	4.dd\	-dic-	.	.	.	.	.	.	.	.
4r	.	.	4r	.	.	.	4r	.	.	4r	.	.	.	.	.	.	.	.	.	.	.	.	.
.	.	.	.	.	8a\	.	.	.	.	.	.	.	.	8a\	-tus	.	.	.	.	.	.	.	.
!	!	!	!	!	!LO:LB:g=original	!	!	!	!	!	!	!	!	!	!	!	!	!	!	!	!	!	!
=33	=33	=33	=33	=33	=33	=33	=33	=33	=33	=33	=33	=33	=33	=33	=33	=33	=33	=33	=33	=33	=33	=33	=33
.	.	.	.	.	16qqee/	.	.	.	.	.	.	.	.	.	.	.	.	.	.	.	.	.	.
!	!	!	!	!	!	!	!LO:TX:t=P:problem=4r poprawiona na 8r	!	!	!	!	!	!	!	!	!	!	!	!	!	!	!	!
8r	.	.	8r	.	8dd\L	.	8r	.	1ryy	8r	.	.	.	8dd\L	qvi	.	.	.	.	1f#X	.	1a	.
*	*	*	*	*	*	*	*	*ij	*	*	*ij	*	*	*	*	*	*	*	*	*	*	*	*
8F#X\L	.	.	8aL 8d/	.	8cc#X\	.	8F#X\	Be-	.	8a\	Be-	.	.	8cc#X\	.	.	.	.	.	.	.	.	.
8F#\	.	.	8a 8d/	.	8dd\	.	8F#\	-ne-	.	8a\	-ne-	.	.	8dd\	.	.	.	.	.	.	.	.	.
8F#\J	.	.	8aJ 8d/	.	8ee\J	.	8F#\	-dic-	.	8a\	-dic-	.	.	8ee\J	.	.	.	.	.	.	.	.	.
4F#\	.	.	4a 4d/	.	4.dd\	.	4F#\	-tus	.	4a\	-tus	.	.	4.dd\	ve-	.	.	.	.	.	.	.	.
*	*	*	*	*	*	*	*	*Xij	*	*	*Xij	*	*	*	*	*	*	*	*	*	*	*	*
4r	x x	.	4r	.	.	.	4r	.	.	4r	.	.	.	.	.	.	.	.	.	.	.	.	.
.	.	.	.	.	8a\	.	.	.	.	.	.	.	.	8a\	-nit	.	.	.	.	.	.	.	.
=34	=34	=34	=34	=34	=34	=34	=34	=34	=34	=34	=34	=34	=34	=34	=34	=34	=34	=34	=34	=34	=34	=34	=34
*	*	*	*	*	*	*	*	*	*	*	*	*	*	*^	*	*	*	*	*	*	*	*	*
!	!	!	!	!	!	!	!	!	!	!	!	!	!	!	!	!	!	!	!	!	!	!	!LO:TX:t=P:problem=4a poprawione na 4b	!
!	!	!	!	!	!	!	!	!	!	!	!	!	!	!	!	!	!	!	!	!	!	!	!LO:TX:t=h	!
1G	7 5	.	1f 1d	.	8dd\L	.	2G\	in	1ryy	2bn\	in	.	.	8dd\L	2ryy	in	.	.	.	.	4g/	.	4b/	.
.	.	.	.	.	8cc#X\	.	.	.	.	.	.	.	.	8cc#X\J	.	.	.	.	.	.	.	.	.	.
.	.	.	.	.	8dd\	.	.	.	.	.	.	.	.	8dd\L	.	no-	.	.	.	.	4r	.	4r	.
.	.	.	.	.	8ee\J	.	.	.	.	.	.	.	.	8ee\J	.	.	.	.	.	.	.	.	.	.
*	*	*	*	*	*Xtuplet	*	*	*	*	*	*	*	*	*Xtuplet	*	*	*	*	*	*	*	*	*	*
!	!	!	!	!	!	!	!	!	!	!	!	!	!	!	!	!	!	!	!	!	!	!	!LO:TX:a::t=Solo	!
.	.	.	.	.	12ff\L	.	4G\	no-	.	4b\	no-	.	.	12ff\L	12ff/	-mi-	.	.	.	.	2r	.	2r	.
.	.	.	.	.	12ee\	.	.	.	.	.	.	.	.	12ee\	12ryy	.	.	.	.	.	.	.	.	.
.	.	.	.	.	12dd\J	.	.	.	.	.	.	.	.	12dd\J	12ryy	.	.	.	.	.	.	.	.	.
!	!	!	!	!	!LO:SIC:v:s=12ccn\L	!	!	!	!	!	!	!	!	!	!LO:SIC:v:s=12ccn\L	!	!	!	!	!	!	!	!	!
.	.	.	.	.	12cc#\L	.	4G\	-mi-	.	4b\	-mi-	.	.	12cc#\L	4ryy	-ne	.	.	.	.	.	.	.	.
.	.	.	.	.	12b\	.	.	.	.	.	.	.	.	12b\	.	.	.	.	.	.	.	.	.	.
.	.	.	.	.	12a\J	.	.	.	.	.	.	.	.	12a\J	.	.	.	.	.	.	.	.	.	.
*	*	*	*	*	*	*	*	*	*	*	*	*	*	*v	*v	*	*	*	*	*	*	*	*	*
=35	=35	=35	=35	=35	=35	=35	=35	=35	=35	=35	=35	=35	=35	=35	=35	=35	=35	=35	=35	=35	=35	=35	=35
2.B\	x -765	.	2.f 2.d/	.	4a-X/	.	2B\	-ne	1ryy	4dd\	-ne	.	.	(4a-X\	Do-	2r	.	2r	.	2r	.	(4aa-X\	.
.	.	.	.	.	8g/	.	.	.	.	4r	.	.	.	4g\)	.	.	.	.	.	.	.	4gg\	.
.	.	.	.	.	8r	.	.	.	.	.	.	.	.	.	.	.	.	.	.	.	.	.	.
.	.	.	.	.	(4ff\	.	2r	.	.	2r	.	.	.	4ff\	-mi-	2g/	.	2dd\	.	4a\	.	4ff\	.
4r	.	.	4r	.	4b\)	.	.	.	.	.	.	.	.	4b\	-ni	.	.	.	.	4f/	.	4b\)	.
!	!	!	!	!	!LO:TX:b:t=Verte	!	!	!	!	!	!	!	!	!	!	!	!	!	!	!	!	!	!
!	!	!	!LO:PB:g=original	!	!LO:PB:g=original	!	!	!	!	!	!	!	!	!LO:LB:g=original	!	!LO:LB:g=original	!	!	!	!	!	!	!
=36	=36	=36	=36	=36	=36	=36	=36	=36	=36	=36	=36	=36	=36	=36	=36	=36	=36	=36	=36	=36	=36	=36	=36
4C/	x 3	.	8.e/L	.	12g/L	.	4C\	Be-	1ryy	4e\	Be-	.	.	4g\	Be-	4e/	.	4cc\	.	4g\	.	4ee\	.
.	.	.	.	.	12f#X/	.	.	.	.	.	.	.	.	.	.	.	.	.	.	.	.	.	.
.	.	.	.	.	12g/J	.	.	.	.	.	.	.	.	.	.	.	.	.	.	.	.	.	.
!	!	!	!LO:N:vis=8	!	!	!	!	!	!	!	!	!	!	!	!	!	!	!	!	!	!	!	!
.	.	.	16G/Jk	.	.	.	.	.	.	.	.	.	.	.	.	.	.	.	.	.	.	.	.
4r	.	.	8.g/L	.	(8.ee^<\L	.	4E\	-ne-	.	4g\	-ne-	.	.	8.ee\L	-ne-	4r	.	4r	.	4r	.	4r	.
.	.	.	16G/Jk	.	32dd\LL	.	.	.	.	.	.	.	.	32dd\LL	.	.	.	.	.	.	.	.	.
.	.	.	.	.	32cc\JJ)J	.	.	.	.	.	.	.	.	32cc\JJJ	.	.	.	.	.	.	.	.	.
!	!LO:SIC:t=7 5	!	!	!	!	!	!	!	!	!	!	!	!	!	!	!	!	!	!	!	!	!	!
4GG/	7 4	.	8.f/L	.	12b\L	.	4G\	-dic-	.	4d\	-dic-	.	.	4b\	-dic-	4g/	.	4dd\	.	4b\	.	4ff\	.
.	.	.	.	.	12a\	.	.	.	.	.	.	.	.	.	.	.	.	.	.	.	.	.	.
.	.	.	.	.	12b\J	.	.	.	.	.	.	.	.	.	.	.	.	.	.	.	.	.	.
.	.	.	16G/Jk	.	.	.	.	.	.	.	.	.	.	.	.	.	.	.	.	.	.	.	.
!	!	!	!LO:N:vis=8	!	!	!	!	!	!	!	!	!	!	!	!	!	!	!	!	!	!	!	!
4r	.	.	8.B/L	.	8.ffn\L	.	8F\	-tus	.	4f\	-tus	.	.	8.ff\L	-tus	4r	.	4r	.	4r	.	4r	.
.	.	.	.	.	.	.	8F\	qvi	.	.	.	.	.	.	.	.	.	.	.	.	.	.	.
.	.	.	16G/Jk	.	32ee\LL	.	.	.	.	.	.	.	.	32ee\LL	.	.	.	.	.	.	.	.	.
.	.	.	.	.	32dd\JJJ	.	.	.	.	.	.	.	.	32dd\JJJ	.	.	.	.	.	.	.	.	.
!	!	!	!	!	!	!	!	!	!	!	!	!	!	!	!	!	!	!	!	!	!	!LO:LB:g=original	!
=37	=37	=37	=37	=37	=37	=37	=37	=37	=37	=37	=37	=37	=37	=37	=37	=37	=37	=37	=37	=37	=37	=37	=37
4C/	x 3	.	8.e/L	.	12cc\L	.	(>4E/	ve-	1ryy	4g\	qvi	.	.	4.ccS\	qvi	4e/	.	4cc\	.	4g/	.	4ee\	.
.	.	.	.	.	12dd\	.	.	.	.	.	.	.	.	.	.	.	.	.	.	.	.	.	.
.	.	.	.	.	12b\J	.	.	.	.	.	.	.	.	.	.	.	.	.	.	.	.	.	.
.	.	.	16G/Jk	.	.	.	.	.	.	.	.	.	.	.	.	.	.	.	.	.	.	.	.
4C/	.	.	8.g/L	.	12cc\L	.	4C/)	.	.	4e\	ve-	.	.	.	.	4c/	.	4cc\	.	4g/	.	4ee\	.
.	.	.	.	.	12ee\	.	.	.	.	.	.	.	.	.	.	.	.	.	.	.	.	.	.
.	.	.	.	.	.	.	.	.	.	.	.	.	.	8ee\	ve-	.	.	.	.	.	.	.	.
.	.	.	.	.	12ff\J	.	.	.	.	.	.	.	.	.	.	.	.	.	.	.	.	.	.
.	.	.	16g/Jk	.	.	.	.	.	.	.	.	.	.	.	.	.	.	.	.	.	.	.	.
!	!	!	!	!	!LO:TX:t=t	!	!	!	!	!	!	!	!	!	!	!	!	!	!	!	!	!	!
4C/	.	.	8.cc/L	.	4gg\	.	4C/	-nit	.	4e\	-nit	.	.	4gg\	-nit	4c/	.	4cc\	.	4g/	.	4ee\	.
.	.	.	16g/Jk	.	.	.	.	.	.	.	.	.	.	.	.	.	.	.	.	.	.	.	.
!	!	!	!	!	!LO:TX:t=P:problem=kreska taktowa poprawiona na 12gg	!	!	!	!	!	!	!	!	!	!	!	!	!	!	!	!	!	!
4r	.	.	8.ee\L	.	12gg\L	.	4r	.	.	4r	.	.	.	8r	.	4r	.	4r	.	4r	.	4r	.
.	.	.	.	.	12aa\	.	.	.	.	.	.	.	.	.	.	.	.	.	.	.	.	.	.
.	.	.	.	.	.	.	.	.	.	.	.	.	.	8gg\	in	.	.	.	.	.	.	.	.
.	.	.	.	.	12gg\J	.	.	.	.	.	.	.	.	.	.	.	.	.	.	.	.	.	.
.	.	.	16ee\Jk	.	.	.	.	.	.	.	.	.	.	.	.	.	.	.	.	.	.	.	.
!	!	!	!	!	!	!	!LO:LB:g=original	!	!	!LO:LB:g=original	!	!	!	!	!	!	!	!LO:LB:g=original	!	!	!	!	!
=38	=38	=38	=38	=38	=38	=38	=38	=38	=38	=38	=38	=38	=38	=38	=38	=38	=38	=38	=38	=38	=38	=38	=38
!	!	!	!	!	!	!	!	!	!	!	!	!	!	!	!	!LO:TX:t=1	!	!LO:TX:t=1	!	!LO:TX:t=1	!	!LO:TX:t=1	!
4A\	6 3_	.	8.a\L	.	12ff'\L	.	4A\	in	1ryy	4cc\	in	.	.	(4ff\	no-	1r	.	1r	.	1r	.	1r	.
.	.	.	.	.	(12gg\	.	.	.	.	.	.	.	.	.	.	.	.	.	.	.	.	.	.
.	.	.	.	.	12ff\J)	.	.	.	.	.	.	.	.	.	.	.	.	.	.	.	.	.	.
.	.	.	16cc\K	.	.	.	.	.	.	.	.	.	.	.	.	.	.	.	.	.	.	.	.
4G\	6 _	.	8.g\	.	12ee'\L	.	4G\	no-	.	4cc\	no-	.	.	4ee\)	.	.	.	.	.	.	.	.	.
.	.	.	.	.	(12ff\	.	.	.	.	.	.	.	.	.	.	.	.	.	.	.	.	.	.
.	.	.	.	.	12ee\J)	.	.	.	.	.	.	.	.	.	.	.	.	.	.	.	.	.	.
.	.	.	16cc\Jk	.	.	.	.	.	.	.	.	.	.	.	.	.	.	.	.	.	.	.	.
4F\	6 _	.	8.f/L	.	12dd'\L	.	4F\	-mi-	.	4cc\	-mi-	.	.	4dd\	-mi-	.	.	.	.	.	.	.	.
.	.	.	.	.	(12ee\	.	.	.	.	.	.	.	.	.	.	.	.	.	.	.	.	.	.
.	.	.	.	.	12dd'\J)	.	.	.	.	.	.	.	.	.	.	.	.	.	.	.	.	.	.
.	.	.	16a/K	.	.	.	.	.	.	.	.	.	.	.	.	.	.	.	.	.	.	.	.
!	!	!	!LO:N:vis=8	!	!	!	!	!	!	!	!	!	!	!	!	!	!	!	!	!	!	!	!
4F#X\	.	.	8.e-X/	.	12cc'\L	.	4F#X\	-ne	.	4cc\	-ne	.	.	4cc\	-ne	.	.	.	.	.	.	.	.
.	.	.	.	.	(12dd\	.	.	.	.	.	.	.	.	.	.	.	.	.	.	.	.	.	.
.	.	.	.	.	12cc\J)	.	.	.	.	.	.	.	.	.	.	.	.	.	.	.	.	.	.
!	!	!	!LO:TX:t=P:problem=16g poprawione na 16a	!	!	!	!	!	!	!	!	!	!	!	!	!	!	!	!	!	!	!	!
!	!	!	!LO:TX:b:t=a	!	!	!	!	!	!	!	!	!	!	!	!	!	!	!	!	!	!	!	!
.	.	.	16a/Jk	.	.	.	.	.	.	.	.	.	.	.	.	.	.	.	.	.	.	.	.
=39	=39	=39	=39	=39	=39	=39	=39	=39	=39	=39	=39	=39	=39	=39	=39	=39	=39	=39	=39	=39	=39	=39	=39
4G\	6 4	.	8.cc/L	.	12ee'\L	.	4.G\	Do-	1ryy	4.cc\	Do-	.	.	4.ee\	Do-	2cc\	.	2ee\	.	2cc\	.	2ee\	.
.	.	.	.	.	12cc'\	.	.	.	.	.	.	.	.	.	.	.	.	.	.	.	.	.	.
.	.	.	.	.	12dd'\J	.	.	.	.	.	.	.	.	.	.	.	.	.	.	.	.	.	.
.	.	.	16g/K	.	.	.	.	.	.	.	.	.	.	.	.	.	.	.	.	.	.	.	.
4GG/	.	.	8.en/	.	12ee'\L	.	.	.	.	.	.	.	.	.	.	.	.	.	.	.	.	.	.
.	.	.	.	.	12ff'\	.	.	.	.	.	.	.	.	.	.	.	.	.	.	.	.	.	.
.	.	.	.	.	.	.	8G\	-mi-	.	8cc\	-mi-	.	.	8ee\	-mi-	.	.	.	.	.	.	.	.
.	.	.	.	.	12gg'\J	.	.	.	.	.	.	.	.	.	.	.	.	.	.	.	.	.	.
.	.	.	16g/Jk	.	.	.	.	.	.	.	.	.	.	.	.	.	.	.	.	.	.	.	.
4G\	5 4	.	8.b/L	.	4dd\	.	4G\	-ni	.	4b\	-ni	.	.	4dd\	-ni	4g/	.	4dd\	.	4b\	.	4dd\	.
!	!	!	!LO:N:vis=8	!	!	!	!	!	!	!	!	!	!	!	!	!	!	!	!	!	!	!	!
.	.	.	16g/K	.	.	.	.	.	.	.	.	.	.	.	.	.	.	.	.	.	.	.	.
4r	.	.	8.d/	.	8r	.	4r	.	.	4r	.	.	.	8r	.	4r	.	4r	.	4r	.	4r	.
.	.	.	.	.	8g/	.	.	.	.	.	.	.	.	8dd\	qvi	.	.	.	.	.	.	.	.
.	.	.	16g/Jk	.	.	.	.	.	.	.	.	.	.	.	.	.	.	.	.	.	.	.	.
!LO:LB:g=original	!	!	!LO:LB:g=original	!	!	!	!	!	!	!	!	!	!	!	!	!	!	!	!	!LO:LB:g=original	!	!	!
=40	=40	=40	=40	=40	=40	=40	=40	=40	=40	=40	=40	=40	=40	=40	=40	=40	=40	=40	=40	=40	=40	=40	=40
*	*	*	*	*	*	*	*	*	*	*	*	*	*	*^	*	*	*	*	*	*	*	*	*
4B\	3_	.	8.f/L	.	12dd\L	.	4B\	Be-	1ryy	(4g\	qvi	.	.	8dd\L	8ryy	ve-	2r	.	2r	.	2r	.	2r	.
.	.	.	.	.	12cc#X\	.	.	.	.	.	.	.	.	.	.	.	.	.	.	.	.	.	.	.
.	.	.	.	.	.	.	.	.	.	.	.	.	.	8ee\	8ryy	.	.	.	.	.	.	.	.	.
.	.	.	.	.	12dd\J	.	.	.	.	.	.	.	.	.	.	.	.	.	.	.	.	.	.	.
.	.	.	16f/Jk	.	.	.	.	.	.	.	.	.	.	.	.	.	.	.	.	.	.	.	.	.
4G\	.	.	8.d/L	.	12gg\L	.	4G\	-ne-	.	4b\)	.	.	.	8ff\J	8ff/	.	.	.	.	.	.	.	.	.
.	.	.	.	.	12ff\	.	.	.	.	.	.	.	.	.	.	.	.	.	.	.	.	.	.	.
.	.	.	.	.	.	.	.	.	.	.	.	.	.	8dd\	8ryy	-nit	.	.	.	.	.	.	.	.
.	.	.	.	.	12dd\J	.	.	.	.	.	.	.	.	.	.	.	.	.	.	.	.	.	.	.
.	.	.	16f/Jk	.	.	.	.	.	.	.	.	.	.	.	.	.	.	.	.	.	.	.	.	.
!	!	!	!	!	!LO:TX:t=t	!	!	!	!	!	!	!	!	!	!	!	!LO:SIC:v:s=4g#/	!	!	!	!	!	!	!
4G#X\	_ 3	.	8.f/L	.	4b\	.	4G#X\	-dic-	.	4b\	ve-	.	.	4b\	4ryy	qvi	4g/	.	4dd\	.	4b\	.	4ff\	.
.	.	.	16f/Jk	.	.	.	.	.	.	.	.	.	.	.	.	.	.	.	.	.	.	.	.	.
!	!	!	!LO:N:vis=8	!	!LO:SIC:v:s=8ccn\	!	!	!	!	!	!	!	!	!	!	!	!	!	!	!	!	!	!	!
4A\	3 x	.	8.e/L	.	8cc#\	.	4A\	-tus	.	4a\	-nit	.	.	4cc\	4ryy	ve-	8e/	.	8cc\	.	8cc\	.	8ee\	.
.	.	.	.	.	8r	.	.	.	.	.	.	.	.	.	.	.	8r	.	8r	.	8r	.	8r	.
.	.	.	16e/Jk	.	.	.	.	.	.	.	.	.	.	.	.	.	.	.	.	.	.	.	.	.
!	!	!	!	!	!LO:LB:g=original	!	!	!	!	!	!	!	!	!	!	!	!	!	!	!	!	!	!	!
*	*	*	*	*	*	*	*	*	*	*	*	*	*	*v	*v	*	*	*	*	*	*	*	*	*
=41	=41	=41	=41	=41	=41	=41	=41	=41	=41	=41	=41	=41	=41	=41	=41	=41	=41	=41	=41	=41	=41	=41	=41
4F\	3_ x	.	8.c/L	.	12a\L	.	4F\	qvi	1ryy	4f\	in	.	.	8a\L	-nit	2r	.	2r	.	2r	.	2r	.
.	.	.	.	.	12g#X\	.	.	.	.	.	.	.	.	.	.	.	.	.	.	.	.	.	.
.	.	.	.	.	.	.	.	.	.	.	.	.	.	8b\	in	.	.	.	.	.	.	.	.
.	.	.	.	.	12a\J	.	.	.	.	.	.	.	.	.	.	.	.	.	.	.	.	.	.
.	.	.	16c/Jk	.	.	.	.	.	.	.	.	.	.	.	.	.	.	.	.	.	.	.	.
4C\	.	.	8.c/L	.	12dd\L	.	4C\	ve-	.	4a\	no-	.	.	8cc\J	.	.	.	.	.	.	.	.	.
.	.	.	.	.	12cc\	.	.	.	.	.	.	.	.	.	.	.	.	.	.	.	.	.	.
.	.	.	.	.	.	.	.	.	.	.	.	.	.	8a\	no-	.	.	.	.	.	.	.	.
.	.	.	.	.	12a\J	.	.	.	.	.	.	.	.	.	.	.	.	.	.	.	.	.	.
.	.	.	16c/Jk	.	.	.	.	.	.	.	.	.	.	.	.	.	.	.	.	.	.	.	.
!	!	!	!	!	!LO:TX:t=t	!	!	!	!	!	!	!	!	!	!	!	!	!	!	!	!	!	!
4E-X\	_ #2	.	8.c/L	.	4f#X/	.	4D#X\	-nit	.	4a\	-mi-	.	.	4f#X/	-mi-	4c/	.	4cc\	.	4f#X/	.	4dd#X\	.
.	.	.	16c/Jk	.	.	.	.	.	.	.	.	.	.	.	.	.	.	.	.	.	.	.	.
!	!	!	!	!	!LO:SIC:v:s=8gn/	!	!	!	!	!	!	!	!	!	!	!	!	!	!	!	!	!	!
4En\	3 x	.	8.c/L	.	8g#/	.	4E\	in	.	4g\	-ne	.	.	4g/	-ne	8c/	.	8cc\	.	8g/	.	8ee\	.
.	.	.	.	.	8r	.	.	.	.	.	.	.	.	.	.	8r	.	8r	.	8r	.	8r	.
.	.	.	16c/Jk	.	.	.	.	.	.	.	.	.	.	.	.	.	.	.	.	.	.	.	.
!	!	!	!	!	!	!	!	!	!	!	!	!	!	!LO:LB:g=original	!	!	!	!	!	!	!	!	!
=42	=42	=42	=42	=42	=42	=42	=42	=42	=42	=42	=42	=42	=42	=42	=42	=42	=42	=42	=42	=42	=42	=42	=42
!	!	!	!	!	!	!	!	!	!	!	!	!	!	!	!	!LO:TX:t=1	!	!LO:TX:t=1	!	!LO:TX:t=1	!	!LO:TX:t=1	!
4F\	6 4_	.	8.d/L	.	12g#X/L	.	4F\	no-	1ryy	4f\	no-	.	.	8g#X\L	no-	1r	.	1r	.	1r	.	1r	.
.	.	.	.	.	12a/	.	.	.	.	.	.	.	.	.	.	.	.	.	.	.	.	.	.
.	.	.	.	.	.	.	.	.	.	.	.	.	.	8a\J	.	.	.	.	.	.	.	.	.
.	.	.	.	.	12a/J	.	.	.	.	.	.	.	.	.	.	.	.	.	.	.	.	.	.
.	.	.	16d/Jk	.	.	.	.	.	.	.	.	.	.	.	.	.	.	.	.	.	.	.	.
!	!	!	!LO:N:vis=8	!	!	!	!	!	!	!	!	!	!	!	!	!	!	!	!	!	!	!	!
4A\	.	.	8.f/L	.	12cc#X\L	.	8A\	-mi-	.	4f\	-mi-	.	.	8cc#X\L	-mi-	.	.	.	.	.	.	.	.
.	.	.	.	.	12dd\	.	.	.	.	.	.	.	.	.	.	.	.	.	.	.	.	.	.
.	.	.	.	.	.	.	8A\	-ne	.	.	.	.	.	8dd\J	.	.	.	.	.	.	.	.	.
.	.	.	.	.	12dd\J	.	.	.	.	.	.	.	.	.	.	.	.	.	.	.	.	.	.
.	.	.	16f/Jk	.	.	.	.	.	.	.	.	.	.	.	.	.	.	.	.	.	.	.	.
4G\	x 4	.	8fL 8G/	.	8.gg\L	.	4G\	Do-	.	4e\	-ne	.	.	8gg\L	-ne	.	.	.	.	.	.	.	.
.	.	.	8f 8G/	.	.	.	.	.	.	.	.	.	.	8ff\J	.	.	.	.	.	.	.	.	.
.	.	.	.	.	16ff\Jk	.	.	.	.	.	.	.	.	.	.	.	.	.	.	.	.	.	.
4G\	x 5	.	8e 8G/	.	8.ccn\L	.	4G\	-mi-	.	4f\	Do-	.	.	8ccn\L	Do-	.	.	.	.	.	.	.	.
.	.	.	8fJ 8G/	.	.	.	.	.	.	.	.	.	.	8dd\J	.	.	.	.	.	.	.	.	.
.	.	.	.	.	16dd\Jk	.	.	.	.	.	.	.	.	.	.	.	.	.	.	.	.	.	.
=43	=43	=43	=43	=43	=43	=43	=43	=43	=43	=43	=43	=43	=43	=43	=43	=43	=43	=43	=43	=43	=43	=43	=43
*	*	*	*tremolo	*	*	*	*	*	*	*	*	*	*	*	*	*	*	*	*	*	*	*	*
4C/	x #9	.	8a 8f#X/L	.	2dd#X^<\	.	[2c\	-ni	1ryy	2f#X\	-mi-	.	.	2dd#X\	-mi-	2.c/	.	2.cc\	.	2f#X/	.	2dd#X\	.
.	.	.	8a 8f#X/	.	.	.	.	.	.	.	.	.	.	.	.	.	.	.	.	.	.	.	.
4c\	.	.	8a 8f#X/	.	.	.	.	.	.	.	.	.	.	.	.	.	.	.	.	.	.	.	.
.	.	.	8a 8f#X/J	.	.	.	.	.	.	.	.	.	.	.	.	.	.	.	.	.	.	.	.
*	*	*	*Xtremolo	*	*	*	*	*	*	*	*	*	*	*	*	*	*	*	*	*	*	*	*
4C/	x 10	.	8g/L	.	4ee\	.	4c\]	.	.	4g\	-ni	.	.	4ee\	-ni	.	.	.	.	4g/	.	4ee\	.
.	.	.	8g/	.	.	.	.	.	.	.	.	.	.	.	.	.	.	.	.	.	.	.	.
4r	.	.	8g/	.	8r	.	4r	.	.	4r	.	.	.	4r	.	4r	.	4r	.	4r	.	4r	.
.	.	.	8e/J	.	8g/	.	.	.	.	.	.	.	.	.	.	.	.	.	.	.	.	.	.
!	!	!	!LO:LB:g=original	!	!	!	!LO:LB:g=original	!	!	!	!	!	!	!	!	!	!	!	!	!	!	!	!
=44	=44	=44	=44-	=44	=44	=44	=44	=44	=44	=44	=44	=44	=44	=44	=44	=44	=44	=44	=44	=44	=44	=44	=44
*	*	*	*	*	*	*	*	*	*	*	*	*	*	*^	*	*	*	*	*	*	*	*	*
4B\	3_	.	8.fny/L	.	12dd\L	.	4B\	Be-	1ryy	(4g\	qvi	.	.	8dd\L	8ryy	ve-	2r	.	2r	.	2r	.	2r	.
.	.	.	.	.	12cc#X\	.	.	.	.	.	.	.	.	.	.	.	.	.	.	.	.	.	.	.
.	.	.	.	.	.	.	.	.	.	.	.	.	.	8ee\	8ryy	.	.	.	.	.	.	.	.	.
.	.	.	.	.	12dd\J	.	.	.	.	.	.	.	.	.	.	.	.	.	.	.	.	.	.	.
.	.	.	16f/Jk	.	.	.	.	.	.	.	.	.	.	.	.	.	.	.	.	.	.	.	.	.
4G\	.	.	8.d/L	.	12gg\L	.	4G\	-ne-	.	4b\)	.	.	.	8ff\J	8ff/	-nit	.	.	.	.	.	.	.	.
.	.	.	.	.	12ff\	.	.	.	.	.	.	.	.	.	.	.	.	.	.	.	.	.	.	.
.	.	.	.	.	.	.	.	.	.	.	.	.	.	8dd\	8ryy	qvi	.	.	.	.	.	.	.	.
.	.	.	.	.	12dd\J	.	.	.	.	.	.	.	.	.	.	.	.	.	.	.	.	.	.	.
.	.	.	16f/Jk	.	.	.	.	.	.	.	.	.	.	.	.	.	.	.	.	.	.	.	.	.
4G#X\	3 1	.	8.f/L	.	12b\L	.	4G#X\	-dic-	.	4f\	ve-	.	.	4b\	4ryy	ve-	4g/	.	4dd\	.	4b\	.	4ff\	.
.	.	.	.	.	12dd\	.	.	.	.	.	.	.	.	.	.	.	.	.	.	.	.	.	.	.
.	.	.	.	.	12bb\J	.	.	.	.	.	.	.	.	.	.	.	.	.	.	.	.	.	.	.
.	.	.	16f/Jk	.	.	.	.	.	.	.	.	.	.	.	.	.	.	.	.	.	.	.	.	.
!	!	!	!LO:N:vis=8	!	!	!	!	!	!	!	!	!	!	!	!	!	!	!	!	!	!	!	!	!
4A\	x 3	.	8.e/L	.	12ddd\L	.	4A\	-tus	.	4e\	-nit	.	.	4cc\	4ryy	-nit	8e/	.	8cc\	.	8cc\	.	8ee\	.
.	.	.	.	.	12ccc\	.	.	.	.	.	.	.	.	.	.	.	.	.	.	.	.	.	.	.
.	.	.	.	.	.	.	.	.	.	.	.	.	.	.	.	.	8r	.	8r	.	8r	.	8r	.
.	.	.	.	.	12ee\J	.	.	.	.	.	.	.	.	.	.	.	.	.	.	.	.	.	.	.
.	.	.	16e/Jk	.	.	.	.	.	.	.	.	.	.	.	.	.	.	.	.	.	.	.	.	.
!	!	!	!	!	!	!	!	!	!	!LO:LB:g=original	!	!	!	!	!	!	!	!	!	!	!	!	!	!
*	*	*	*	*	*	*	*	*	*	*	*	*	*	*v	*v	*	*	*	*	*	*	*	*	*
=45	=45	=45	=45	=45	=45	=45	=45	=45	=45	=45	=45	=45	=45	=45	=45	=45	=45	=45	=45	=45	=45	=45	=45
4F\	3_	.	8.c/L	.	12a\L	.	4F\	qvi	1ryy	4f\	in	.	.	8a\L	in	2r	.	2r	.	2r	.	2r	.
.	.	.	.	.	12g#X\	.	.	.	.	.	.	.	.	.	.	.	.	.	.	.	.	.	.
.	.	.	.	.	.	.	.	.	.	.	.	.	.	8b\	.	.	.	.	.	.	.	.	.
.	.	.	.	.	12a\J	.	.	.	.	.	.	.	.	.	.	.	.	.	.	.	.	.	.
.	.	.	16c/Jk	.	.	.	.	.	.	.	.	.	.	.	.	.	.	.	.	.	.	.	.
*	*	*	*rep	*	*	*	*	*	*	*	*	*	*	*	*	*	*	*	*	*	*	*	*
4C\	.	.	8.c/L	.	12dd\L	.	4C\	ve-	.	4a\	no-	.	.	8cc\J	.	.	.	.	.	.	.	.	.
.	.	.	.	.	12cc\	.	.	.	.	.	.	.	.	.	.	.	.	.	.	.	.	.	.
.	.	.	.	.	.	.	.	.	.	.	.	.	.	8a\	-no-	.	.	.	.	.	.	.	.
.	.	.	.	.	12a\J	.	.	.	.	.	.	.	.	.	.	.	.	.	.	.	.	.	.
.	.	.	16c/Jk	.	.	.	.	.	.	.	.	.	.	.	.	.	.	.	.	.	.	.	.
*	*	*	*Xrep	*	*	*	*	*	*	*	*	*	*	*	*	*	*	*	*	*	*	*	*
*	*	*	*rep	*	*	*	*	*	*	*	*	*	*	*	*	*	*	*	*	*	*	*	*
4E-X\	x #2	.	8.c/L	.	12f#X\L	.	4D#X\	-nit	.	4d#X\	-mi-	.	.	4f#X/	-mi-	4c/	.	4cc\	.	4f#X/	.	4dd#X\	.
!	!	!	!	!	!LO:SIC:v:s=12gn\	!	!	!	!	!	!	!	!	!	!	!	!	!	!	!	!	!	!
.	.	.	.	.	12g#\	.	.	.	.	.	.	.	.	.	.	.	.	.	.	.	.	.	.
.	.	.	.	.	12ee\J	.	.	.	.	.	.	.	.	.	.	.	.	.	.	.	.	.	.
.	.	.	16c/Jk	.	.	.	.	.	.	.	.	.	.	.	.	.	.	.	.	.	.	.	.
*	*	*	*Xrep	*	*	*	*	*	*	*	*	*	*	*	*	*	*	*	*	*	*	*	*
*	*	*	*rep	*	*	*	*	*	*	*	*	*	*	*	*	*	*	*	*	*	*	*	*
4En\	.	.	8.c/L	.	12gg\L	.	4E\	in	.	4e\	-ne	.	.	4g/	-ne	8c/	.	8cc\	.	8g/	.	8ee\	.
.	.	.	.	.	12ee\	.	.	.	.	.	.	.	.	.	.	.	.	.	.	.	.	.	.
.	.	.	.	.	.	.	.	.	.	.	.	.	.	.	.	8r	.	8r	.	8r	.	8r	.
.	.	.	.	.	12cc\J	.	.	.	.	.	.	.	.	.	.	.	.	.	.	.	.	.	.
.	.	.	16c/Jk	.	.	.	.	.	.	.	.	.	.	.	.	.	.	.	.	.	.	.	.
*	*	*	*Xrep	*	*	*	*	*	*	*	*	*	*	*	*	*	*	*	*	*	*	*	*
!	!	!	!	!	!LO:LB:g=origianal	!	!	!	!	!	!	!	!	!	!	!	!	!	!	!	!	!	!
=46	=46	=46	=46	=46	=46	=46	=46	=46	=46	=46	=46	=46	=46	=46	=46	=46	=46	=46	=46	=46	=46	=46	=46
4F\	6 3_	.	8.d/L	.	12g#X/L	.	4F\	no-	1ryy	4f\	no-	.	.	8g#X/L	Do-	2r	.	2r	.	2r	.	2r	.
.	.	.	.	.	12a/	.	.	.	.	.	.	.	.	.	.	.	.	.	.	.	.	.	.
.	.	.	.	.	.	.	.	.	.	.	.	.	.	8a/J	.	.	.	.	.	.	.	.	.
.	.	.	.	.	12a/J	.	.	.	.	.	.	.	.	.	.	.	.	.	.	.	.	.	.
.	.	.	16d/Jk	.	.	.	.	.	.	.	.	.	.	.	.	.	.	.	.	.	.	.	.
4A\	.	.	8.f/L	.	12cc#X\L	.	8A\	-mi-	.	8f\	-mi-	.	.	8cc#X\L	.	.	.	.	.	.	.	.	.
.	.	.	.	.	12dd\	.	.	.	.	.	.	.	.	.	.	.	.	.	.	.	.	.	.
.	.	.	.	.	.	.	8A\	-ne	.	8f\	-ne	.	.	8dd\J	.	.	.	.	.	.	.	.	.
.	.	.	.	.	12dd\J	.	.	.	.	.	.	.	.	.	.	.	.	.	.	.	.	.	.
.	.	.	16f/Jk	.	.	.	.	.	.	.	.	.	.	.	.	.	.	.	.	.	.	.	.
*	*	*	*tremolo	*	*	*	*	*	*	*	*	*	*	*	*	*	*	*	*	*	*	*	*
4G\	6 4	.	8f 8G/L	.	12bb\L	.	4G\	Do-	.	4e\	Do-	.	.	4gg\	.	2g/	.	2dd\	.	2b\	.	2ff\	.
.	.	.	.	.	12aa\	.	.	.	.	.	.	.	.	.	.	.	.	.	.	.	.	.	.
.	.	.	8f 8G/	.	.	.	.	.	.	.	.	.	.	.	.	.	.	.	.	.	.	.	.
.	.	.	.	.	12gg\J	.	.	.	.	.	.	.	.	.	.	.	.	.	.	.	.	.	.
4GG/	5 3	.	8f 8G/	.	12ff\L	.	4GG/	-mi-	.	4f\	-mi-	.	.	4b\	-mi-	.	.	.	.	.	.	.	.
.	.	.	.	.	12ee\	.	.	.	.	.	.	.	.	.	.	.	.	.	.	.	.	.	.
.	.	.	8f 8G/J	.	.	.	.	.	.	.	.	.	.	.	.	.	.	.	.	.	.	.	.
!	!	!	!	!	!LO:TX:t=P:problem=wykreślone dwa takty	!	!	!	!	!	!	!	!	!	!	!	!	!	!	!	!	!	!
.	.	.	.	.	12dd\J	.	.	.	.	.	.	.	.	.	.	.	.	.	.	.	.	.	.
*	*	*	*Xtremolo	*	*	*	*	*	*	*	*	*	*	*	*	*	*	*	*	*	*	*	*
!	!	!	!	!	!	!	!	!	!	!	!	!	!	!	!	!	!	!	!	!	!	!LO:LB:g=original	!
=47	=47	=47	=47	=47	=47	=47	=47	=47	=47	=47	=47	=47	=47	=47	=47	=47	=47	=47	=47	=47	=47	=47	=47
!	!	!	!	!	!	!	!	!	!	!	!	!	!	!	!	!	!	!	!	!	!	!LO:TX:a:t=Solo	!
4C/	.	.	4e 4G/	.	4cc\	.	4C/	-ni	1ryy	4e\	-ni	.	.	4cc\	-ni	4e/	.	4cc\	.	4cc\	.	4ee\	.
8c\L	x 3	.	8ee\L	.	4r	.	8c\L	O-	.	4r	.	.	.	4r	.	4r	.	4r	.	8cc\L	.	8ee'\L	.
8B\J	x 3	.	8dd\J	.	.	.	8B\J	.	.	.	.	.	.	.	.	.	.	.	.	8b\J	.	8dd'\J	.
8A\L	x 3	.	8cc\L	.	2r	.	8A\L	-san-	.	2r	.	.	.	2r	.	2r	.	2r	.	8a/L	.	8cc'\L	.
8G\	x 3	.	8b\	.	.	.	8G\J	.	.	.	.	.	.	.	.	.	.	.	.	8g/	.	8b'\	.
8F\	x 3	.	8a\	.	.	.	8F\L	-na	.	.	.	.	.	.	.	.	.	.	.	8f/	.	8a'\	.
8E\J	x 3	.	8g\J	.	.	.	8E\J	.	.	.	.	.	.	.	.	.	.	.	.	8e/J	.	8g'\J	.
!LO:LB:g=original	!	!	!	!	!	!	!	!	!	!	!	!	!	!LO:LB:g=original	!	!LO:LB:g=original	!	!	!	!	!	!	!
=48	=48	=48	=48	=48	=48	=48	=48	=48	=48	=48	=48	=48	=48	=48	=48	=48	=48	=48	=48	=48	=48	=48	=48
*	*	*	*tremolo	*	*	*	*	*	*	*	*	*	*below	*	*	*	*	*	*	*	*	*	*
4D\	6_ 4_	.	8f/L	.	8r	.	2D\	in	1ryy	8r	.	.	.	8r	.	8r	.	8r	.	8r	.	8r	.
.	.	.	8G/	.	8gg\L	.	.	.	.	8b\	O-	.	f	8gg\	O-	8g/L	.	8dd\L	.	8b\L	.	8ff\L	.
4r	.	.	8f/	.	8gg\	.	.	.	.	8b\	-san-	.	.	8gg\	-san-	8g/	.	8dd\	.	8b\	.	8ff\	.
.	.	.	8G/J	.	8gg\J	.	.	.	.	8b\	-na	.	.	8gg\	-na	8g/J	.	8dd\J	.	8b\J	.	8ff\J	.
*	*	*	*rep	*	*	*	*	*	*	*	*	*	*	*	*	*	*	*	*	*	*	*	*
!	!	!	!	!	!LO:TX:t=P:problem=mixed beam	!	!	!	!	!	!	!	!	!	!	!	!	!	!	!LO:LB:g=original	!	!	!
4G\	.	.	8f/L	.	8gg\L	.	4G\	ex-	.	8b\	in	.	.	8gg\	in	2g/	.	2dd\	.	2b\	.	2ff\	.
.	.	.	8G/	.	8ff\	.	.	.	.	8b\	ex-	.	.	8ff\	ex-	.	.	.	.	.	.	.	.
4GG/	.	.	8f/	.	8a/	.	4G\	-cel-	.	4f\	-cel-	.	.	8a\L	-cel-	.	.	.	.	.	.	.	.
.	.	.	8G/J	.	8b/J	.	.	.	.	.	.	.	.	8b\J	.	.	.	.	.	.	.	.	.
*	*	*	*Xrep	*	*	*	*	*	*	*	*	*	*	*	*	*	*	*	*	*	*	*	*
*	*	*	*Xtremolo	*	*	*	*	*	*	*	*	*	*	*	*	*	*	*	*	*	*	*	*
=49	=49	=49	=49	=49	=49	=49	=49	=49	=49	=49	=49	=49	=49	=49	=49	=49	=49	=49	=49	=49	=49	=49	=49
4C/	x x	.	8e/L	.	4cc\	.	4C/	-sis	1ryy	4e\	-sis	.	.	4cc\	-sis	4e/	.	4cc\	.	4cc\	.	4ee\	.
.	.	.	8G/J	.	.	.	.	.	.	.	.	.	.	.	.	.	.	.	.	.	.	.	.
8c\L	x 3	.	8ee\L	.	4r	.	8c\L	O-	.	4r	.	.	.	4r	.	4r	.	4r	.	8cc\L	.	8ee\L	.
8B\J	x 3	.	8dd\J	.	.	.	8B\J	.	.	.	.	.	.	.	.	.	.	.	.	8b\J	.	8dd\J	.
8A\L	x 3	.	8cc\L	.	2r	.	8A\L	-san-	.	2r	.	.	.	2r	.	2r	.	2r	.	8a/L	.	8cc\L	.
8G\	x 3	.	8b\	.	.	.	8G\J	.	.	.	.	.	.	.	.	.	.	.	.	8g/	.	8b\	.
8F\	x 3	.	8a\	.	.	.	8F\L	-na	.	.	.	.	.	.	.	.	.	.	.	8f/	.	8a\	.
8E\J	x 3	.	8g\J	.	.	.	8E\J	.	.	.	.	.	.	.	.	.	.	.	.	8e/J	.	8g\J	.
!	!	!	!LO:LB:g=original	!	!	!	!LO:LB:g=original	!	!	!	!	!	!	!	!	!	!	!	!	!	!	!	!
=50	=50	=50	=50	=50	=50	=50	=50	=50	=50	=50	=50	=50	=50	=50	=50	=50	=50	=50	=50	=50	=50	=50	=50
*	*	*	*tremolo	*	*	*	*	*	*	*	*	*	*	*	*	*	*	*	*	*	*	*	*
4D\	6_ 4_	.	8f/L	.	8r	.	4D\	in	1ryy	8r	.	.	.	8r	.	8r	.	8r	.	8r	.	8r	.
.	.	.	8G/	.	8gg\L	.	.	.	.	8b\	O-	.	.	8gg\	O-	8g/L	.	8dd\L	.	8b\L	.	8ff\L	.
4F\	.	.	8f/	.	8gg\	.	4F\	ex-	.	8b\	-san-	.	.	8gg\	-san-	8g/	.	8dd\	.	8b\	.	8ff\	.
.	.	.	8G/J	.	8gg\J	.	.	.	.	8b\	-na	.	.	8gg\	-na	8g/J	.	8dd\J	.	8b\J	.	8ff\J	.
*	*	*	*rep	*	*	*	*	*	*	*	*	*	*	*	*	*	*	*	*	*	*	*	*
4G\	.	.	8f/L	.	8bb\L	.	[4G\	-cel-	.	8dd\	in	.	.	8bb\	in	2g/	.	2dd\	.	2b\	.	2ff\	.
.	.	.	8G/	.	8aa\	.	.	.	.	8dd\	ex-	.	.	8aa\	ex-	.	.	.	.	.	.	.	.
4GG/	.	.	8f/	.	8ff\	.	4G\]	.	.	4f\	-cel-	.	.	8ff\L	-cel-	.	.	.	.	.	.	.	.
.	.	.	8G/J	.	8dd\J	.	.	.	.	.	.	.	.	8dd\J	.	.	.	.	.	.	.	.	.
*	*	*	*Xrep	*	*	*	*	*	*	*	*	*	*	*	*	*	*	*	*	*	*	*	*
*	*	*below	*Xtremolo	*	*	*	*	*	*	*	*	*	*	*	*	*	*	*	*	*	*	*	*
!	!	!	!	!	!	!	!	!	!	!LO:LB:g=original	!	!	!	!	!	!	!	!	!	!	!	!	!
=51	=51	=51	=51	=51	=51	=51	=51	=51	=51	=51	=51	=51	=51	=51	=51	=51	=51	=51	=51	=51	=51	=51	=51
*	*	*	*	*	*^	*	*	*	*	*	*	*	*	*	*	*	*	*	*	*	*	*	*
*	*	*	*	*	*cue	*	*	*	*	*	*	*	*	*	*	*	*	*	*	*	*	*	*	*
!	!	!	!	!	!	!	!	!	!	!	!	!	!	!	!	!	!	!	!	!	!LO:TX:t=P:problem=brak taktu	!	!LO:TX:t=P:problem=brak taktu	!
4C/	x 3_	f	4e 4G/	.	4ee/	4cc\	.	4C/	-sis	1ryy	4e\	-sis	.	.	4cc\	-sis	4e/	.	4cc\	f	1ryy	.	1ryy	.
4r	.	.	4r	.	4ee/	4r	.	4c\	O-	.	4g\	O-	.	.	4ee\	O-	4e/	.	4cc\	.	.	.	.	.
2r	.	.	2r	.	4ee/	2r	.	4c\	-san-	.	4g\	-sa-	.	.	4ee\	-san-	4e/	.	4cc\	.	.	.	.	.
.	.	.	.	.	4ee/	.	.	4c\	-na	.	4g\	-nna	.	.	4ee\	-na	4e/	.	4cc\	.	.	.	.	.
*	*	*	*	*	*Xcue	*	*	*	*	*	*	*	*	*	*	*	*	*	*	*	*	*	*	*
*	*	*	*	*	*v	*v	*	*	*	*	*	*	*	*	*	*	*	*	*	*	*	*	*	*
!	!	!	!	!	!LO:LB:g=original	!	!	!	!	!	!	!	!	!	!	!	!	!LO:LB:g=original	!	!	!	!	!
=52	=52	=52	=52	=52	=52	=52	=52	=52	=52	=52	=52	=52	=52	=52	=52	=52	=52	=52	=52	=52	=52	=52	=52
4C/	.	ff	4e 4c/	.	4ee 4cc 4g\	.	2c\	in	1ryy	2g\	in	.	.	2ee\	in	2e/	.	2cc\	.	2g/	.	2ee\	.
4r	.	.	4r	.	4r	.	.	.	.	.	.	.	.	.	.	.	.	.	.	.	.	.	.
4c\	.	.	4g 4c/	.	4gg 4cc 4e\	.	4c\	ex-	.	4g\	ex-	.	.	4ee\	ex-	2e/	.	2cc\	.	2g/	.	2ee\	.
4r	.	.	4r	.	4r	.	4c\	-cel-	.	4g\	-cel-	.	.	4ee\	-cel-	.	.	.	.	.	.	.	.
=53	=53	=53	=53	=53	=53	=53	=53	=53	=53	=53	=53	=53	=53	=53	=53	=53	=53	=53	=53	=53	=53	=53	=53
2.C;/	x x	.	1cc;	.	2ccc 2ee 2g 2c;\	.	1c	-sis	1ryy	1g	-sis	.	.	1ee	-sis	1e;	.	1cc;	.	1g;	.	1ee;	.
.	.	.	.	.	2ryy	.	.	.	.	.	.	.	.	.	.	.	.	.	.	.	.	.	.
4r	.	.	.	.	.	.	.	.	.	.	.	.	.	.	.	.	.	.	.	.	.	.	.
==	==	==	==	==	==	==	==	==	==	==	==	==	==	==	==	==	==	==	==	==	==	==	==
*-	*-	*-	*-	*-	*-	*-	*-	*-	*-	*-	*-	*-	*-	*-	*-	*-	*-	*-	*-	*-	*-	*-	*-
!!!system-decoration: [g1][g2][g3][g4]g5
!!!RDF**kern: > = above
!!!RDF**kern: < = below
!!!RDF**kern: | = vertical stroke
!!!ENC: Katarzyna Serwa
!!!END: 2021-12-14
!!!ENC: Marta Opryszak
!!!END: 2021-11-18
